luts/hlg_to_linear.cube
TITLE "HLG Scene"
LUT_3D_SIZE 8
DOMAIN_MIN 0.000000 0.000000 0.000000
DOMAIN_MAX 0.903226 0.903226 0.903226
0.000000 0.000000 0.000000
0.005550 0.000000 0.000000
0.022199 0.000000 0.000000
0.049948 0.000000 0.000000
0.088960 0.000000 0.000000
0.157952 0.000000 0.000000
0.299910 0.000000 0.000000
0.591996 0.000000 0.000000
0.000000 0.005550 0.000000
0.005550 0.005550 0.000000
0.022199 0.005550 0.000000
0.049948 0.005550 0.000000
0.088960 0.005550 0.000000
0.157952 0.005550 0.000000
0.299910 0.005550 0.000000
0.591996 0.005550 0.000000
0.000000 0.022199 0.000000
0.005550 0.022199 0.000000
0.022199 0.022199 0.000000
0.049948 0.022199 0.000000
0.088960 0.022199 0.000000
0.157952 0.022199 0.000000
0.299910 0.022199 0.000000
0.591996 0.022199 0.000000
0.000000 0.049948 0.000000
0.005550 0.049948 0.000000
0.022199 0.049948 0.000000
0.049948 0.049948 0.000000
0.088960 0.049948 0.000000
0.157952 0.049948 0.000000
0.299910 0.049948 0.000000
0.591996 0.049948 0.000000
0.000000 0.088960 0.000000
0.005550 0.088960 0.000000
0.022199 0.088960 0.000000
0.049948 0.088960 0.000000
0.088960 0.088960 0.000000
0.157952 0.088960 0.000000
0.299910 0.088960 0.000000
0.591996 0.088960 0.000000
0.000000 0.157952 0.000000
0.005550 0.157952 0.000000
0.022199 0.157952 0.000000
0.049948 0.157952 0.000000
0.088960 0.157952 0.000000
0.157952 0.157952 0.000000
0.299910 0.157952 0.000000
0.591996 0.157952 0.000000
0.000000 0.299910 0.000000
0.005550 0.299910 0.000000
0.022199 0.299910 0.000000
0.049948 0.299910 0.000000
0.088960 0.299910 0.000000
0.157952 0.299910 0.000000
0.299910 0.299910 0.000000
0.591996 0.299910 0.000000
0.000000 0.591996 0.000000
0.005550 0.591996 0.000000
0.022199 0.591996 0.000000
0.049948 0.591996 0.000000
0.088960 0.591996 0.000000
0.157952 0.591996 0.000000
0.299910 0.591996 0.000000
0.591996 0.591996 0.000000
0.000000 0.000000 0.005550
0.005550 0.000000 0.005550
0.022199 0.000000 0.005550
0.049948 0.000000 0.005550
0.088960 0.000000 0.005550
0.157952 0.000000 0.005550
0.299910 0.000000 0.005550
0.591996 0.000000 0.005550
0.000000 0.005550 0.005550
0.005550 0.005550 0.005550
0.022199 0.005550 0.005550
0.049948 0.005550 0.005550
0.088960 0.005550 0.005550
0.157952 0.005550 0.005550
0.299910 0.005550 0.005550
0.591996 0.005550 0.005550
0.000000 0.022199 0.005550
0.005550 0.022199 0.005550
0.022199 0.022199 0.005550
0.049948 0.022199 0.005550
0.088960 0.022199 0.005550
0.157952 0.022199 0.005550
0.299910 0.022199 0.005550
0.591996 0.022199 0.005550
0.000000 0.049948 0.005550
0.005550 0.049948 0.005550
0.022199 0.049948 0.005550
0.049948 0.049948 0.005550
0.088960 0.049948 0.005550
0.157952 0.049948 0.005550
0.299910 0.049948 0.005550
0.591996 0.049948 0.005550
0.000000 0.088960 0.005550
0.005550 0.088960 0.005550
0.022199 0.088960 0.005550
0.049948 0.088960 0.005550
0.088960 0.088960 0.005550
0.157952 0.088960 0.005550
0.299910 0.088960 0.005550
0.591996 0.088960 0.005550
0.000000 0.157952 0.005550
0.005550 0.157952 0.005550
0.022199 0.157952 0.005550
0.049948 0.157952 0.005550
0.088960 0.157952 0.005550
0.157952 0.157952 0.005550
0.299910 0.157952 0.005550
0.591996 0.157952 0.005550
0.000000 0.299910 0.005550
0.005550 0.299910 0.005550
0.022199 0.299910 0.005550
0.049948 0.299910 0.005550
0.088960 0.299910 0.005550
0.157952 0.299910 0.005550
0.299910 0.299910 0.005550
0.591996 0.299910 0.005550
0.000000 0.591996 0.005550
0.005550 0.591996 0.005550
0.022199 0.591996 0.005550
0.049948 0.591996 0.005550
0.088960 0.591996 0.005550
0.157952 0.591996 0.005550
0.299910 0.591996 0.005550
0.591996 0.591996 0.005550
0.000000 0.000000 0.022199
0.005550 0.000000 0.022199
0.022199 0.000000 0.022199
0.049948 0.000000 0.022199
0.088960 0.000000 0.022199
0.157952 0.000000 0.022199
0.299910 0.000000 0.022199
0.591996 0.000000 0.022199
0.000000 0.005550 0.022199
0.005550 0.005550 0.022199
0.022199 0.005550 0.022199
0.049948 0.005550 0.022199
0.088960 0.005550 0.022199
0.157952 0.005550 0.022199
0.299910 0.005550 0.022199
0.591996 0.005550 0.022199
0.000000 0.022199 0.022199
0.005550 0.022199 0.022199
0.022199 0.022199 0.022199
0.049948 0.022199 0.022199
0.088960 0.022199 0.022199
0.157952 0.022199 0.022199
0.299910 0.022199 0.022199
0.591996 0.022199 0.022199
0.000000 0.049948 0.022199
0.005550 0.049948 0.022199
0.022199 0.049948 0.022199
0.049948 0.049948 0.022199
0.088960 0.049948 0.022199
0.157952 0.049948 0.022199
0.299910 0.049948 0.022199
0.591996 0.049948 0.022199
0.000000 0.088960 0.022199
0.005550 0.088960 0.022199
0.022199 0.088960 0.022199
0.049948 0.088960 0.022199
0.088960 0.088960 0.022199
0.157952 0.088960 0.022199
0.299910 0.088960 0.022199
0.591996 0.088960 0.022199
0.000000 0.157952 0.022199
0.005550 0.157952 0.022199
0.022199 0.157952 0.022199
0.049948 0.157952 0.022199
0.088960 0.157952 0.022199
0.157952 0.157952 0.022199
0.299910 0.157952 0.022199
0.591996 0.157952 0.022199
0.000000 0.299910 0.022199
0.005550 0.299910 0.022199
0.022199 0.299910 0.022199
0.049948 0.299910 0.022199
0.088960 0.299910 0.022199
0.157952 0.299910 0.022199
0.299910 0.299910 0.022199
0.591996 0.299910 0.022199
0.000000 0.591996 0.022199
0.005550 0.591996 0.022199
0.022199 0.591996 0.022199
0.049948 0.591996 0.022199
0.088960 0.591996 0.022199
0.157952 0.591996 0.022199
0.299910 0.591996 0.022199
0.591996 0.591996 0.022199
0.000000 0.000000 0.049948
0.005550 0.000000 0.049948
0.022199 0.000000 0.049948
0.049948 0.000000 0.049948
0.088960 0.000000 0.049948
0.157952 0.000000 0.049948
0.299910 0.000000 0.049948
0.591996 0.000000 0.049948
0.000000 0.005550 0.049948
0.005550 0.005550 0.049948
0.022199 0.005550 0.049948
0.049948 0.005550 0.049948
0.088960 0.005550 0.049948
0.157952 0.005550 0.049948
0.299910 0.005550 0.049948
0.591996 0.005550 0.049948
0.000000 0.022199 0.049948
0.005550 0.022199 0.049948
0.022199 0.022199 0.049948
0.049948 0.022199 0.049948
0.088960 0.022199 0.049948
0.157952 0.022199 0.049948
0.299910 0.022199 0.049948
0.591996 0.022199 0.049948
0.000000 0.049948 0.049948
0.005550 0.049948 0.049948
0.022199 0.049948 0.049948
0.049948 0.049948 0.049948
0.088960 0.049948 0.049948
0.157952 0.049948 0.049948
0.299910 0.049948 0.049948
0.591996 0.049948 0.049948
0.000000 0.088960 0.049948
0.005550 0.088960 0.049948
0.022199 0.088960 0.049948
0.049948 0.088960 0.049948
0.088960 0.088960 0.049948
0.157952 0.088960 0.049948
0.299910 0.088960 0.049948
0.591996 0.088960 0.049948
0.000000 0.157952 0.049948
0.005550 0.157952 0.049948
0.022199 0.157952 0.049948
0.049948 0.157952 0.049948
0.088960 0.157952 0.049948
0.157952 0.157952 0.049948
0.299910 0.157952 0.049948
0.591996 0.157952 0.049948
0.000000 0.299910 0.049948
0.005550 0.299910 0.049948
0.022199 0.299910 0.049948
0.049948 0.299910 0.049948
0.088960 0.299910 0.049948
0.157952 0.299910 0.049948
0.299910 0.299910 0.049948
0.591996 0.299910 0.049948
0.000000 0.591996 0.049948
0.005550 0.591996 0.049948
0.022199 0.591996 0.049948
0.049948 0.591996 0.049948
0.088960 0.591996 0.049948
0.157952 0.591996 0.049948
0.299910 0.591996 0.049948
0.591996 0.591996 0.049948
0.000000 0.000000 0.088960
0.005550 0.000000 0.088960
0.022199 0.000000 0.088960
0.049948 0.000000 0.088960
0.088960 0.000000 0.088960
0.157952 0.000000 0.088960
0.299910 0.000000 0.088960
0.591996 0.000000 0.088960
0.000000 0.005550 0.088960
0.005550 0.005550 0.088960
0.022199 0.005550 0.088960
0.049948 0.005550 0.088960
0.088960 0.005550 0.088960
0.157952 0.005550 0.088960
0.299910 0.005550 0.088960
0.591996 0.005550 0.088960
0.000000 0.022199 0.088960
0.005550 0.022199 0.088960
0.022199 0.022199 0.088960
0.049948 0.022199 0.088960
0.088960 0.022199 0.088960
0.157952 0.022199 0.088960
0.299910 0.022199 0.088960
0.591996 0.022199 0.088960
0.000000 0.049948 0.088960
0.005550 0.049948 0.088960
0.022199 0.049948 0.088960
0.049948 0.049948 0.088960
0.088960 0.049948 0.088960
0.157952 0.049948 0.088960
0.299910 0.049948 0.088960
0.591996 0.049948 0.088960
0.000000 0.088960 0.088960
0.005550 0.088960 0.088960
0.022199 0.088960 0.088960
0.049948 0.088960 0.088960
0.088960 0.088960 0.088960
0.157952 0.088960 0.088960
0.299910 0.088960 0.088960
0.591996 0.088960 0.088960
0.000000 0.157952 0.088960
0.005550 0.157952 0.088960
0.022199 0.157952 0.088960
0.049948 0.157952 0.088960
0.088960 0.157952 0.088960
0.157952 0.157952 0.088960
0.299910 0.157952 0.088960
0.591996 0.157952 0.088960
0.000000 0.299910 0.088960
0.005550 0.299910 0.088960
0.022199 0.299910 0.088960
0.049948 0.299910 0.088960
0.088960 0.299910 0.088960
0.157952 0.299910 0.088960
0.299910 0.299910 0.088960
0.591996 0.299910 0.088960
0.000000 0.591996 0.088960
0.005550 0.591996 0.088960
0.022199 0.591996 0.088960
0.049948 0.591996 0.088960
0.088960 0.591996 0.088960
0.157952 0.591996 0.088960
0.299910 0.591996 0.088960
0.591996 0.591996 0.088960
0.000000 0.000000 0.157952
0.005550 0.000000 0.157952
0.022199 0.000000 0.157952
0.049948 0.000000 0.157952
0.088960 0.000000 0.157952
0.157952 0.000000 0.157952
0.299910 0.000000 0.157952
0.591996 0.000000 0.157952
0.000000 0.005550 0.157952
0.005550 0.005550 0.157952
0.022199 0.005550 0.157952
0.049948 0.005550 0.157952
0.088960 0.005550 0.157952
0.157952 0.005550 0.157952
0.299910 0.005550 0.157952
0.591996 0.005550 0.157952
0.000000 0.022199 0.157952
0.005550 0.022199 0.157952
0.022199 0.022199 0.157952
0.049948 0.022199 0.157952
0.088960 0.022199 0.157952
0.157952 0.022199 0.157952
0.299910 0.022199 0.157952
0.591996 0.022199 0.157952
0.000000 0.049948 0.157952
0.005550 0.049948 0.157952
0.022199 0.049948 0.157952
0.049948 0.049948 0.157952
0.088960 0.049948 0.157952
0.157952 0.049948 0.157952
0.299910 0.049948 0.157952
0.591996 0.049948 0.157952
0.000000 0.088960 0.157952
0.005550 0.088960 0.157952
0.022199 0.088960 0.157952
0.049948 0.088960 0.157952
0.088960 0.088960 0.157952
0.157952 0.088960 0.157952
0.299910 0.088960 0.157952
0.591996 0.088960 0.157952
0.000000 0.157952 0.157952
0.005550 0.157952 0.157952
0.022199 0.157952 0.157952
0.049948 0.157952 0.157952
0.088960 0.157952 0.157952
0.157952 0.157952 0.157952
0.299910 0.157952 0.157952
0.591996 0.157952 0.157952
0.000000 0.299910 0.157952
0.005550 0.299910 0.157952
0.022199 0.299910 0.157952
0.049948 0.299910 0.157952
0.088960 0.299910 0.157952
0.157952 0.299910 0.157952
0.299910 0.299910 0.157952
0.591996 0.299910 0.157952
0.000000 0.591996 0.157952
0.005550 0.591996 0.157952
0.022199 0.591996 0.157952
0.049948 0.591996 0.157952
0.088960 0.591996 0.157952
0.157952 0.591996 0.157952
0.299910 0.591996 0.157952
0.591996 0.591996 0.157952
0.000000 0.000000 0.299910
0.005550 0.000000 0.299910
0.022199 0.000000 0.299910
0.049948 0.000000 0.299910
0.088960 0.000000 0.299910
0.157952 0.000000 0.299910
0.299910 0.000000 0.299910
0.591996 0.000000 0.299910
0.000000 0.005550 0.299910
0.005550 0.005550 0.299910
0.022199 0.005550 0.299910
0.049948 0.005550 0.299910
0.088960 0.005550 0.299910
0.157952 0.005550 0.299910
0.299910 0.005550 0.299910
0.591996 0.005550 0.299910
0.000000 0.022199 0.299910
0.005550 0.022199 0.299910
0.022199 0.022199 0.299910
0.049948 0.022199 0.299910
0.088960 0.022199 0.299910
0.157952 0.022199 0.299910
0.299910 0.022199 0.299910
0.591996 0.022199 0.299910
0.000000 0.049948 0.299910
0.005550 0.049948 0.299910
0.022199 0.049948 0.299910
0.049948 0.049948 0.299910
0.088960 0.049948 0.299910
0.157952 0.049948 0.299910
0.299910 0.049948 0.299910
0.591996 0.049948 0.299910
0.000000 0.088960 0.299910
0.005550 0.088960 0.299910
0.022199 0.088960 0.299910
0.049948 0.088960 0.299910
0.088960 0.088960 0.299910
0.157952 0.088960 0.299910
0.299910 0.088960 0.299910
0.591996 0.088960 0.299910
0.000000 0.157952 0.299910
0.005550 0.157952 0.299910
0.022199 0.157952 0.299910
0.049948 0.157952 0.299910
0.088960 0.157952 0.299910
0.157952 0.157952 0.299910
0.299910 0.157952 0.299910
0.591996 0.157952 0.299910
0.000000 0.299910 0.299910
0.005550 0.299910 0.299910
0.022199 0.299910 0.299910
0.049948 0.299910 0.299910
0.088960 0.299910 0.299910
0.157952 0.299910 0.299910
0.299910 0.299910 0.299910
0.591996 0.299910 0.299910
0.000000 0.591996 0.299910
0.005550 0.591996 0.299910
0.022199 0.591996 0.299910
0.049948 0.591996 0.299910
0.088960 0.591996 0.299910
0.157952 0.591996 0.299910
0.299910 0.591996 0.299910
0.591996 0.591996 0.299910
0.000000 0.000000 0.591996
0.005550 0.000000 0.591996
0.022199 0.000000 0.591996
0.049948 0.000000 0.591996
0.088960 0.000000 0.591996
0.157952 0.000000 0.591996
0.299910 0.000000 0.591996
0.591996 0.000000 0.591996
0.000000 0.005550 0.591996
0.005550 0.005550 0.591996
0.022199 0.005550 0.591996
0.049948 0.005550 0.591996
0.088960 0.005550 0.591996
0.157952 0.005550 0.591996
0.299910 0.005550 0.591996
0.591996 0.005550 0.591996
0.000000 0.022199 0.591996
0.005550 0.022199 0.591996
0.022199 0.022199 0.591996
0.049948 0.022199 0.591996
0.088960 0.022199 0.591996
0.157952 0.022199 0.591996
0.299910 0.022199 0.591996
0.591996 0.022199 0.591996
0.000000 0.049948 0.591996
0.005550 0.049948 0.591996
0.022199 0.049948 0.591996
0.049948 0.049948 0.591996
0.088960 0.049948 0.591996
0.157952 0.049948 0.591996
0.299910 0.049948 0.591996
0.591996 0.049948 0.591996
0.000000 0.088960 0.591996
0.005550 0.088960 0.591996
0.022199 0.088960 0.591996
0.049948 0.088960 0.591996
0.088960 0.088960 0.591996
0.157952 0.088960 0.591996
0.299910 0.088960 0.591996
0.591996 0.088960 0.591996
0.000000 0.157952 0.591996
0.005550 0.157952 0.591996
0.022199 0.157952 0.591996
0.049948 0.157952 0.591996
0.088960 0.157952 0.591996
0.157952 0.157952 0.591996
0.299910 0.157952 0.591996
0.591996 0.157952 0.591996
0.000000 0.299910 0.591996
0.005550 0.299910 0.591996
0.022199 0.299910 0.591996
0.049948 0.299910 0.591996
0.088960 0.299910 0.591996
0.157952 0.299910 0.591996
0.299910 0.299910 0.591996
0.591996 0.299910 0.591996
0.000000 0.591996 0.591996
0.005550 0.591996 0.591996
0.022199 0.591996 0.591996
0.049948 0.591996 0.591996
0.088960 0.591996 0.591996
0.157952 0.591996 0.591996
0.299910 0.591996 0.591996
0.591996 0.591996 0.591996
