luts/hlg_to_linear.cube
TITLE "HLG Scene"
LUT_3D_SIZE 32
0.000000 0.000000 0.000000
0.000347 0.000000 0.000000
0.001387 0.000000 0.000000
0.003122 0.000000 0.000000
0.005550 0.000000 0.000000
0.008672 0.000000 0.000000
0.012487 0.000000 0.000000
0.016996 0.000000 0.000000
0.022199 0.000000 0.000000
0.028096 0.000000 0.000000
0.034686 0.000000 0.000000
0.041970 0.000000 0.000000
0.049948 0.000000 0.000000
0.058619 0.000000 0.000000
0.067985 0.000000 0.000000
0.078044 0.000000 0.000000
0.088960 0.000000 0.000000
0.101855 0.000000 0.000000
0.117300 0.000000 0.000000
0.135798 0.000000 0.000000
0.157952 0.000000 0.000000
0.184486 0.000000 0.000000
0.216265 0.000000 0.000000
0.254325 0.000000 0.000000
0.299910 0.000000 0.000000
0.354505 0.000000 0.000000
0.419892 0.000000 0.000000
0.498204 0.000000 0.000000
0.591996 0.000000 0.000000
0.704329 0.000000 0.000000
0.838867 0.000000 0.000000
1.000000 0.000000 0.000000
0.000000 0.000347 0.000000
0.000347 0.000347 0.000000
0.001387 0.000347 0.000000
0.003122 0.000347 0.000000
0.005550 0.000347 0.000000
0.008672 0.000347 0.000000
0.012487 0.000347 0.000000
0.016996 0.000347 0.000000
0.022199 0.000347 0.000000
0.028096 0.000347 0.000000
0.034686 0.000347 0.000000
0.041970 0.000347 0.000000
0.049948 0.000347 0.000000
0.058619 0.000347 0.000000
0.067985 0.000347 0.000000
0.078044 0.000347 0.000000
0.088960 0.000347 0.000000
0.101855 0.000347 0.000000
0.117300 0.000347 0.000000
0.135798 0.000347 0.000000
0.157952 0.000347 0.000000
0.184486 0.000347 0.000000
0.216265 0.000347 0.000000
0.254325 0.000347 0.000000
0.299910 0.000347 0.000000
0.354505 0.000347 0.000000
0.419892 0.000347 0.000000
0.498204 0.000347 0.000000
0.591996 0.000347 0.000000
0.704329 0.000347 0.000000
0.838867 0.000347 0.000000
1.000000 0.000347 0.000000
0.000000 0.001387 0.000000
0.000347 0.001387 0.000000
0.001387 0.001387 0.000000
0.003122 0.001387 0.000000
0.005550 0.001387 0.000000
0.008672 0.001387 0.000000
0.012487 0.001387 0.000000
0.016996 0.001387 0.000000
0.022199 0.001387 0.000000
0.028096 0.001387 0.000000
0.034686 0.001387 0.000000
0.041970 0.001387 0.000000
0.049948 0.001387 0.000000
0.058619 0.001387 0.000000
0.067985 0.001387 0.000000
0.078044 0.001387 0.000000
0.088960 0.001387 0.000000
0.101855 0.001387 0.000000
0.117300 0.001387 0.000000
0.135798 0.001387 0.000000
0.157952 0.001387 0.000000
0.184486 0.001387 0.000000
0.216265 0.001387 0.000000
0.254325 0.001387 0.000000
0.299910 0.001387 0.000000
0.354505 0.001387 0.000000
0.419892 0.001387 0.000000
0.498204 0.001387 0.000000
0.591996 0.001387 0.000000
0.704329 0.001387 0.000000
0.838867 0.001387 0.000000
1.000000 0.001387 0.000000
0.000000 0.003122 0.000000
0.000347 0.003122 0.000000
0.001387 0.003122 0.000000
0.003122 0.003122 0.000000
0.005550 0.003122 0.000000
0.008672 0.003122 0.000000
0.012487 0.003122 0.000000
0.016996 0.003122 0.000000
0.022199 0.003122 0.000000
0.028096 0.003122 0.000000
0.034686 0.003122 0.000000
0.041970 0.003122 0.000000
0.049948 0.003122 0.000000
0.058619 0.003122 0.000000
0.067985 0.003122 0.000000
0.078044 0.003122 0.000000
0.088960 0.003122 0.000000
0.101855 0.003122 0.000000
0.117300 0.003122 0.000000
0.135798 0.003122 0.000000
0.157952 0.003122 0.000000
0.184486 0.003122 0.000000
0.216265 0.003122 0.000000
0.254325 0.003122 0.000000
0.299910 0.003122 0.000000
0.354505 0.003122 0.000000
0.419892 0.003122 0.000000
0.498204 0.003122 0.000000
0.591996 0.003122 0.000000
0.704329 0.003122 0.000000
0.838867 0.003122 0.000000
1.000000 0.003122 0.000000
0.000000 0.005550 0.000000
0.000347 0.005550 0.000000
0.001387 0.005550 0.000000
0.003122 0.005550 0.000000
0.005550 0.005550 0.000000
0.008672 0.005550 0.000000
0.012487 0.005550 0.000000
0.016996 0.005550 0.000000
0.022199 0.005550 0.000000
0.028096 0.005550 0.000000
0.034686 0.005550 0.000000
0.041970 0.005550 0.000000
0.049948 0.005550 0.000000
0.058619 0.005550 0.000000
0.067985 0.005550 0.000000
0.078044 0.005550 0.000000
0.088960 0.005550 0.000000
0.101855 0.005550 0.000000
0.117300 0.005550 0.000000
0.135798 0.005550 0.000000
0.157952 0.005550 0.000000
0.184486 0.005550 0.000000
0.216265 0.005550 0.000000
0.254325 0.005550 0.000000
0.299910 0.005550 0.000000
0.354505 0.005550 0.000000
0.419892 0.005550 0.000000
0.498204 0.005550 0.000000
0.591996 0.005550 0.000000
0.704329 0.005550 0.000000
0.838867 0.005550 0.000000
1.000000 0.005550 0.000000
0.000000 0.008672 0.000000
0.000347 0.008672 0.000000
0.001387 0.008672 0.000000
0.003122 0.008672 0.000000
0.005550 0.008672 0.000000
0.008672 0.008672 0.000000
0.012487 0.008672 0.000000
0.016996 0.008672 0.000000
0.022199 0.008672 0.000000
0.028096 0.008672 0.000000
0.034686 0.008672 0.000000
0.041970 0.008672 0.000000
0.049948 0.008672 0.000000
0.058619 0.008672 0.000000
0.067985 0.008672 0.000000
0.078044 0.008672 0.000000
0.088960 0.008672 0.000000
0.101855 0.008672 0.000000
0.117300 0.008672 0.000000
0.135798 0.008672 0.000000
0.157952 0.008672 0.000000
0.184486 0.008672 0.000000
0.216265 0.008672 0.000000
0.254325 0.008672 0.000000
0.299910 0.008672 0.000000
0.354505 0.008672 0.000000
0.419892 0.008672 0.000000
0.498204 0.008672 0.000000
0.591996 0.008672 0.000000
0.704329 0.008672 0.000000
0.838867 0.008672 0.000000
1.000000 0.008672 0.000000
0.000000 0.012487 0.000000
0.000347 0.012487 0.000000
0.001387 0.012487 0.000000
0.003122 0.012487 0.000000
0.005550 0.012487 0.000000
0.008672 0.012487 0.000000
0.012487 0.012487 0.000000
0.016996 0.012487 0.000000
0.022199 0.012487 0.000000
0.028096 0.012487 0.000000
0.034686 0.012487 0.000000
0.041970 0.012487 0.000000
0.049948 0.012487 0.000000
0.058619 0.012487 0.000000
0.067985 0.012487 0.000000
0.078044 0.012487 0.000000
0.088960 0.012487 0.000000
0.101855 0.012487 0.000000
0.117300 0.012487 0.000000
0.135798 0.012487 0.000000
0.157952 0.012487 0.000000
0.184486 0.012487 0.000000
0.216265 0.012487 0.000000
0.254325 0.012487 0.000000
0.299910 0.012487 0.000000
0.354505 0.012487 0.000000
0.419892 0.012487 0.000000
0.498204 0.012487 0.000000
0.591996 0.012487 0.000000
0.704329 0.012487 0.000000
0.838867 0.012487 0.000000
1.000000 0.012487 0.000000
0.000000 0.016996 0.000000
0.000347 0.016996 0.000000
0.001387 0.016996 0.000000
0.003122 0.016996 0.000000
0.005550 0.016996 0.000000
0.008672 0.016996 0.000000
0.012487 0.016996 0.000000
0.016996 0.016996 0.000000
0.022199 0.016996 0.000000
0.028096 0.016996 0.000000
0.034686 0.016996 0.000000
0.041970 0.016996 0.000000
0.049948 0.016996 0.000000
0.058619 0.016996 0.000000
0.067985 0.016996 0.000000
0.078044 0.016996 0.000000
0.088960 0.016996 0.000000
0.101855 0.016996 0.000000
0.117300 0.016996 0.000000
0.135798 0.016996 0.000000
0.157952 0.016996 0.000000
0.184486 0.016996 0.000000
0.216265 0.016996 0.000000
0.254325 0.016996 0.000000
0.299910 0.016996 0.000000
0.354505 0.016996 0.000000
0.419892 0.016996 0.000000
0.498204 0.016996 0.000000
0.591996 0.016996 0.000000
0.704329 0.016996 0.000000
0.838867 0.016996 0.000000
1.000000 0.016996 0.000000
0.000000 0.022199 0.000000
0.000347 0.022199 0.000000
0.001387 0.022199 0.000000
0.003122 0.022199 0.000000
0.005550 0.022199 0.000000
0.008672 0.022199 0.000000
0.012487 0.022199 0.000000
0.016996 0.022199 0.000000
0.022199 0.022199 0.000000
0.028096 0.022199 0.000000
0.034686 0.022199 0.000000
0.041970 0.022199 0.000000
0.049948 0.022199 0.000000
0.058619 0.022199 0.000000
0.067985 0.022199 0.000000
0.078044 0.022199 0.000000
0.088960 0.022199 0.000000
0.101855 0.022199 0.000000
0.117300 0.022199 0.000000
0.135798 0.022199 0.000000
0.157952 0.022199 0.000000
0.184486 0.022199 0.000000
0.216265 0.022199 0.000000
0.254325 0.022199 0.000000
0.299910 0.022199 0.000000
0.354505 0.022199 0.000000
0.419892 0.022199 0.000000
0.498204 0.022199 0.000000
0.591996 0.022199 0.000000
0.704329 0.022199 0.000000
0.838867 0.022199 0.000000
1.000000 0.022199 0.000000
0.000000 0.028096 0.000000
0.000347 0.028096 0.000000
0.001387 0.028096 0.000000
0.003122 0.028096 0.000000
0.005550 0.028096 0.000000
0.008672 0.028096 0.000000
0.012487 0.028096 0.000000
0.016996 0.028096 0.000000
0.022199 0.028096 0.000000
0.028096 0.028096 0.000000
0.034686 0.028096 0.000000
0.041970 0.028096 0.000000
0.049948 0.028096 0.000000
0.058619 0.028096 0.000000
0.067985 0.028096 0.000000
0.078044 0.028096 0.000000
0.088960 0.028096 0.000000
0.101855 0.028096 0.000000
0.117300 0.028096 0.000000
0.135798 0.028096 0.000000
0.157952 0.028096 0.000000
0.184486 0.028096 0.000000
0.216265 0.028096 0.000000
0.254325 0.028096 0.000000
0.299910 0.028096 0.000000
0.354505 0.028096 0.000000
0.419892 0.028096 0.000000
0.498204 0.028096 0.000000
0.591996 0.028096 0.000000
0.704329 0.028096 0.000000
0.838867 0.028096 0.000000
1.000000 0.028096 0.000000
0.000000 0.034686 0.000000
0.000347 0.034686 0.000000
0.001387 0.034686 0.000000
0.003122 0.034686 0.000000
0.005550 0.034686 0.000000
0.008672 0.034686 0.000000
0.012487 0.034686 0.000000
0.016996 0.034686 0.000000
0.022199 0.034686 0.000000
0.028096 0.034686 0.000000
0.034686 0.034686 0.000000
0.041970 0.034686 0.000000
0.049948 0.034686 0.000000
0.058619 0.034686 0.000000
0.067985 0.034686 0.000000
0.078044 0.034686 0.000000
0.088960 0.034686 0.000000
0.101855 0.034686 0.000000
0.117300 0.034686 0.000000
0.135798 0.034686 0.000000
0.157952 0.034686 0.000000
0.184486 0.034686 0.000000
0.216265 0.034686 0.000000
0.254325 0.034686 0.000000
0.299910 0.034686 0.000000
0.354505 0.034686 0.000000
0.419892 0.034686 0.000000
0.498204 0.034686 0.000000
0.591996 0.034686 0.000000
0.704329 0.034686 0.000000
0.838867 0.034686 0.000000
1.000000 0.034686 0.000000
0.000000 0.041970 0.000000
0.000347 0.041970 0.000000
0.001387 0.041970 0.000000
0.003122 0.041970 0.000000
0.005550 0.041970 0.000000
0.008672 0.041970 0.000000
0.012487 0.041970 0.000000
0.016996 0.041970 0.000000
0.022199 0.041970 0.000000
0.028096 0.041970 0.000000
0.034686 0.041970 0.000000
0.041970 0.041970 0.000000
0.049948 0.041970 0.000000
0.058619 0.041970 0.000000
0.067985 0.041970 0.000000
0.078044 0.041970 0.000000
0.088960 0.041970 0.000000
0.101855 0.041970 0.000000
0.117300 0.041970 0.000000
0.135798 0.041970 0.000000
0.157952 0.041970 0.000000
0.184486 0.041970 0.000000
0.216265 0.041970 0.000000
0.254325 0.041970 0.000000
0.299910 0.041970 0.000000
0.354505 0.041970 0.000000
0.419892 0.041970 0.000000
0.498204 0.041970 0.000000
0.591996 0.041970 0.000000
0.704329 0.041970 0.000000
0.838867 0.041970 0.000000
1.000000 0.041970 0.000000
0.000000 0.049948 0.000000
0.000347 0.049948 0.000000
0.001387 0.049948 0.000000
0.003122 0.049948 0.000000
0.005550 0.049948 0.000000
0.008672 0.049948 0.000000
0.012487 0.049948 0.000000
0.016996 0.049948 0.000000
0.022199 0.049948 0.000000
0.028096 0.049948 0.000000
0.034686 0.049948 0.000000
0.041970 0.049948 0.000000
0.049948 0.049948 0.000000
0.058619 0.049948 0.000000
0.067985 0.049948 0.000000
0.078044 0.049948 0.000000
0.088960 0.049948 0.000000
0.101855 0.049948 0.000000
0.117300 0.049948 0.000000
0.135798 0.049948 0.000000
0.157952 0.049948 0.000000
0.184486 0.049948 0.000000
0.216265 0.049948 0.000000
0.254325 0.049948 0.000000
0.299910 0.049948 0.000000
0.354505 0.049948 0.000000
0.419892 0.049948 0.000000
0.498204 0.049948 0.000000
0.591996 0.049948 0.000000
0.704329 0.049948 0.000000
0.838867 0.049948 0.000000
1.000000 0.049948 0.000000
0.000000 0.058619 0.000000
0.000347 0.058619 0.000000
0.001387 0.058619 0.000000
0.003122 0.058619 0.000000
0.005550 0.058619 0.000000
0.008672 0.058619 0.000000
0.012487 0.058619 0.000000
0.016996 0.058619 0.000000
0.022199 0.058619 0.000000
0.028096 0.058619 0.000000
0.034686 0.058619 0.000000
0.041970 0.058619 0.000000
0.049948 0.058619 0.000000
0.058619 0.058619 0.000000
0.067985 0.058619 0.000000
0.078044 0.058619 0.000000
0.088960 0.058619 0.000000
0.101855 0.058619 0.000000
0.117300 0.058619 0.000000
0.135798 0.058619 0.000000
0.157952 0.058619 0.000000
0.184486 0.058619 0.000000
0.216265 0.058619 0.000000
0.254325 0.058619 0.000000
0.299910 0.058619 0.000000
0.354505 0.058619 0.000000
0.419892 0.058619 0.000000
0.498204 0.058619 0.000000
0.591996 0.058619 0.000000
0.704329 0.058619 0.000000
0.838867 0.058619 0.000000
1.000000 0.058619 0.000000
0.000000 0.067985 0.000000
0.000347 0.067985 0.000000
0.001387 0.067985 0.000000
0.003122 0.067985 0.000000
0.005550 0.067985 0.000000
0.008672 0.067985 0.000000
0.012487 0.067985 0.000000
0.016996 0.067985 0.000000
0.022199 0.067985 0.000000
0.028096 0.067985 0.000000
0.034686 0.067985 0.000000
0.041970 0.067985 0.000000
0.049948 0.067985 0.000000
0.058619 0.067985 0.000000
0.067985 0.067985 0.000000
0.078044 0.067985 0.000000
0.088960 0.067985 0.000000
0.101855 0.067985 0.000000
0.117300 0.067985 0.000000
0.135798 0.067985 0.000000
0.157952 0.067985 0.000000
0.184486 0.067985 0.000000
0.216265 0.067985 0.000000
0.254325 0.067985 0.000000
0.299910 0.067985 0.000000
0.354505 0.067985 0.000000
0.419892 0.067985 0.000000
0.498204 0.067985 0.000000
0.591996 0.067985 0.000000
0.704329 0.067985 0.000000
0.838867 0.067985 0.000000
1.000000 0.067985 0.000000
0.000000 0.078044 0.000000
0.000347 0.078044 0.000000
0.001387 0.078044 0.000000
0.003122 0.078044 0.000000
0.005550 0.078044 0.000000
0.008672 0.078044 0.000000
0.012487 0.078044 0.000000
0.016996 0.078044 0.000000
0.022199 0.078044 0.000000
0.028096 0.078044 0.000000
0.034686 0.078044 0.000000
0.041970 0.078044 0.000000
0.049948 0.078044 0.000000
0.058619 0.078044 0.000000
0.067985 0.078044 0.000000
0.078044 0.078044 0.000000
0.088960 0.078044 0.000000
0.101855 0.078044 0.000000
0.117300 0.078044 0.000000
0.135798 0.078044 0.000000
0.157952 0.078044 0.000000
0.184486 0.078044 0.000000
0.216265 0.078044 0.000000
0.254325 0.078044 0.000000
0.299910 0.078044 0.000000
0.354505 0.078044 0.000000
0.419892 0.078044 0.000000
0.498204 0.078044 0.000000
0.591996 0.078044 0.000000
0.704329 0.078044 0.000000
0.838867 0.078044 0.000000
1.000000 0.078044 0.000000
0.000000 0.088960 0.000000
0.000347 0.088960 0.000000
0.001387 0.088960 0.000000
0.003122 0.088960 0.000000
0.005550 0.088960 0.000000
0.008672 0.088960 0.000000
0.012487 0.088960 0.000000
0.016996 0.088960 0.000000
0.022199 0.088960 0.000000
0.028096 0.088960 0.000000
0.034686 0.088960 0.000000
0.041970 0.088960 0.000000
0.049948 0.088960 0.000000
0.058619 0.088960 0.000000
0.067985 0.088960 0.000000
0.078044 0.088960 0.000000
0.088960 0.088960 0.000000
0.101855 0.088960 0.000000
0.117300 0.088960 0.000000
0.135798 0.088960 0.000000
0.157952 0.088960 0.000000
0.184486 0.088960 0.000000
0.216265 0.088960 0.000000
0.254325 0.088960 0.000000
0.299910 0.088960 0.000000
0.354505 0.088960 0.000000
0.419892 0.088960 0.000000
0.498204 0.088960 0.000000
0.591996 0.088960 0.000000
0.704329 0.088960 0.000000
0.838867 0.088960 0.000000
1.000000 0.088960 0.000000
0.000000 0.101855 0.000000
0.000347 0.101855 0.000000
0.001387 0.101855 0.000000
0.003122 0.101855 0.000000
0.005550 0.101855 0.000000
0.008672 0.101855 0.000000
0.012487 0.101855 0.000000
0.016996 0.101855 0.000000
0.022199 0.101855 0.000000
0.028096 0.101855 0.000000
0.034686 0.101855 0.000000
0.041970 0.101855 0.000000
0.049948 0.101855 0.000000
0.058619 0.101855 0.000000
0.067985 0.101855 0.000000
0.078044 0.101855 0.000000
0.088960 0.101855 0.000000
0.101855 0.101855 0.000000
0.117300 0.101855 0.000000
0.135798 0.101855 0.000000
0.157952 0.101855 0.000000
0.184486 0.101855 0.000000
0.216265 0.101855 0.000000
0.254325 0.101855 0.000000
0.299910 0.101855 0.000000
0.354505 0.101855 0.000000
0.419892 0.101855 0.000000
0.498204 0.101855 0.000000
0.591996 0.101855 0.000000
0.704329 0.101855 0.000000
0.838867 0.101855 0.000000
1.000000 0.101855 0.000000
0.000000 0.117300 0.000000
0.000347 0.117300 0.000000
0.001387 0.117300 0.000000
0.003122 0.117300 0.000000
0.005550 0.117300 0.000000
0.008672 0.117300 0.000000
0.012487 0.117300 0.000000
0.016996 0.117300 0.000000
0.022199 0.117300 0.000000
0.028096 0.117300 0.000000
0.034686 0.117300 0.000000
0.041970 0.117300 0.000000
0.049948 0.117300 0.000000
0.058619 0.117300 0.000000
0.067985 0.117300 0.000000
0.078044 0.117300 0.000000
0.088960 0.117300 0.000000
0.101855 0.117300 0.000000
0.117300 0.117300 0.000000
0.135798 0.117300 0.000000
0.157952 0.117300 0.000000
0.184486 0.117300 0.000000
0.216265 0.117300 0.000000
0.254325 0.117300 0.000000
0.299910 0.117300 0.000000
0.354505 0.117300 0.000000
0.419892 0.117300 0.000000
0.498204 0.117300 0.000000
0.591996 0.117300 0.000000
0.704329 0.117300 0.000000
0.838867 0.117300 0.000000
1.000000 0.117300 0.000000
0.000000 0.135798 0.000000
0.000347 0.135798 0.000000
0.001387 0.135798 0.000000
0.003122 0.135798 0.000000
0.005550 0.135798 0.000000
0.008672 0.135798 0.000000
0.012487 0.135798 0.000000
0.016996 0.135798 0.000000
0.022199 0.135798 0.000000
0.028096 0.135798 0.000000
0.034686 0.135798 0.000000
0.041970 0.135798 0.000000
0.049948 0.135798 0.000000
0.058619 0.135798 0.000000
0.067985 0.135798 0.000000
0.078044 0.135798 0.000000
0.088960 0.135798 0.000000
0.101855 0.135798 0.000000
0.117300 0.135798 0.000000
0.135798 0.135798 0.000000
0.157952 0.135798 0.000000
0.184486 0.135798 0.000000
0.216265 0.135798 0.000000
0.254325 0.135798 0.000000
0.299910 0.135798 0.000000
0.354505 0.135798 0.000000
0.419892 0.135798 0.000000
0.498204 0.135798 0.000000
0.591996 0.135798 0.000000
0.704329 0.135798 0.000000
0.838867 0.135798 0.000000
1.000000 0.135798 0.000000
0.000000 0.157952 0.000000
0.000347 0.157952 0.000000
0.001387 0.157952 0.000000
0.003122 0.157952 0.000000
0.005550 0.157952 0.000000
0.008672 0.157952 0.000000
0.012487 0.157952 0.000000
0.016996 0.157952 0.000000
0.022199 0.157952 0.000000
0.028096 0.157952 0.000000
0.034686 0.157952 0.000000
0.041970 0.157952 0.000000
0.049948 0.157952 0.000000
0.058619 0.157952 0.000000
0.067985 0.157952 0.000000
0.078044 0.157952 0.000000
0.088960 0.157952 0.000000
0.101855 0.157952 0.000000
0.117300 0.157952 0.000000
0.135798 0.157952 0.000000
0.157952 0.157952 0.000000
0.184486 0.157952 0.000000
0.216265 0.157952 0.000000
0.254325 0.157952 0.000000
0.299910 0.157952 0.000000
0.354505 0.157952 0.000000
0.419892 0.157952 0.000000
0.498204 0.157952 0.000000
0.591996 0.157952 0.000000
0.704329 0.157952 0.000000
0.838867 0.157952 0.000000
1.000000 0.157952 0.000000
0.000000 0.184486 0.000000
0.000347 0.184486 0.000000
0.001387 0.184486 0.000000
0.003122 0.184486 0.000000
0.005550 0.184486 0.000000
0.008672 0.184486 0.000000
0.012487 0.184486 0.000000
0.016996 0.184486 0.000000
0.022199 0.184486 0.000000
0.028096 0.184486 0.000000
0.034686 0.184486 0.000000
0.041970 0.184486 0.000000
0.049948 0.184486 0.000000
0.058619 0.184486 0.000000
0.067985 0.184486 0.000000
0.078044 0.184486 0.000000
0.088960 0.184486 0.000000
0.101855 0.184486 0.000000
0.117300 0.184486 0.000000
0.135798 0.184486 0.000000
0.157952 0.184486 0.000000
0.184486 0.184486 0.000000
0.216265 0.184486 0.000000
0.254325 0.184486 0.000000
0.299910 0.184486 0.000000
0.354505 0.184486 0.000000
0.419892 0.184486 0.000000
0.498204 0.184486 0.000000
0.591996 0.184486 0.000000
0.704329 0.184486 0.000000
0.838867 0.184486 0.000000
1.000000 0.184486 0.000000
0.000000 0.216265 0.000000
0.000347 0.216265 0.000000
0.001387 0.216265 0.000000
0.003122 0.216265 0.000000
0.005550 0.216265 0.000000
0.008672 0.216265 0.000000
0.012487 0.216265 0.000000
0.016996 0.216265 0.000000
0.022199 0.216265 0.000000
0.028096 0.216265 0.000000
0.034686 0.216265 0.000000
0.041970 0.216265 0.000000
0.049948 0.216265 0.000000
0.058619 0.216265 0.000000
0.067985 0.216265 0.000000
0.078044 0.216265 0.000000
0.088960 0.216265 0.000000
0.101855 0.216265 0.000000
0.117300 0.216265 0.000000
0.135798 0.216265 0.000000
0.157952 0.216265 0.000000
0.184486 0.216265 0.000000
0.216265 0.216265 0.000000
0.254325 0.216265 0.000000
0.299910 0.216265 0.000000
0.354505 0.216265 0.000000
0.419892 0.216265 0.000000
0.498204 0.216265 0.000000
0.591996 0.216265 0.000000
0.704329 0.216265 0.000000
0.838867 0.216265 0.000000
1.000000 0.216265 0.000000
0.000000 0.254325 0.000000
0.000347 0.254325 0.000000
0.001387 0.254325 0.000000
0.003122 0.254325 0.000000
0.005550 0.254325 0.000000
0.008672 0.254325 0.000000
0.012487 0.254325 0.000000
0.016996 0.254325 0.000000
0.022199 0.254325 0.000000
0.028096 0.254325 0.000000
0.034686 0.254325 0.000000
0.041970 0.254325 0.000000
0.049948 0.254325 0.000000
0.058619 0.254325 0.000000
0.067985 0.254325 0.000000
0.078044 0.254325 0.000000
0.088960 0.254325 0.000000
0.101855 0.254325 0.000000
0.117300 0.254325 0.000000
0.135798 0.254325 0.000000
0.157952 0.254325 0.000000
0.184486 0.254325 0.000000
0.216265 0.254325 0.000000
0.254325 0.254325 0.000000
0.299910 0.254325 0.000000
0.354505 0.254325 0.000000
0.419892 0.254325 0.000000
0.498204 0.254325 0.000000
0.591996 0.254325 0.000000
0.704329 0.254325 0.000000
0.838867 0.254325 0.000000
1.000000 0.254325 0.000000
0.000000 0.299910 0.000000
0.000347 0.299910 0.000000
0.001387 0.299910 0.000000
0.003122 0.299910 0.000000
0.005550 0.299910 0.000000
0.008672 0.299910 0.000000
0.012487 0.299910 0.000000
0.016996 0.299910 0.000000
0.022199 0.299910 0.000000
0.028096 0.299910 0.000000
0.034686 0.299910 0.000000
0.041970 0.299910 0.000000
0.049948 0.299910 0.000000
0.058619 0.299910 0.000000
0.067985 0.299910 0.000000
0.078044 0.299910 0.000000
0.088960 0.299910 0.000000
0.101855 0.299910 0.000000
0.117300 0.299910 0.000000
0.135798 0.299910 0.000000
0.157952 0.299910 0.000000
0.184486 0.299910 0.000000
0.216265 0.299910 0.000000
0.254325 0.299910 0.000000
0.299910 0.299910 0.000000
0.354505 0.299910 0.000000
0.419892 0.299910 0.000000
0.498204 0.299910 0.000000
0.591996 0.299910 0.000000
0.704329 0.299910 0.000000
0.838867 0.299910 0.000000
1.000000 0.299910 0.000000
0.000000 0.354505 0.000000
0.000347 0.354505 0.000000
0.001387 0.354505 0.000000
0.003122 0.354505 0.000000
0.005550 0.354505 0.000000
0.008672 0.354505 0.000000
0.012487 0.354505 0.000000
0.016996 0.354505 0.000000
0.022199 0.354505 0.000000
0.028096 0.354505 0.000000
0.034686 0.354505 0.000000
0.041970 0.354505 0.000000
0.049948 0.354505 0.000000
0.058619 0.354505 0.000000
0.067985 0.354505 0.000000
0.078044 0.354505 0.000000
0.088960 0.354505 0.000000
0.101855 0.354505 0.000000
0.117300 0.354505 0.000000
0.135798 0.354505 0.000000
0.157952 0.354505 0.000000
0.184486 0.354505 0.000000
0.216265 0.354505 0.000000
0.254325 0.354505 0.000000
0.299910 0.354505 0.000000
0.354505 0.354505 0.000000
0.419892 0.354505 0.000000
0.498204 0.354505 0.000000
0.591996 0.354505 0.000000
0.704329 0.354505 0.000000
0.838867 0.354505 0.000000
1.000000 0.354505 0.000000
0.000000 0.419892 0.000000
0.000347 0.419892 0.000000
0.001387 0.419892 0.000000
0.003122 0.419892 0.000000
0.005550 0.419892 0.000000
0.008672 0.419892 0.000000
0.012487 0.419892 0.000000
0.016996 0.419892 0.000000
0.022199 0.419892 0.000000
0.028096 0.419892 0.000000
0.034686 0.419892 0.000000
0.041970 0.419892 0.000000
0.049948 0.419892 0.000000
0.058619 0.419892 0.000000
0.067985 0.419892 0.000000
0.078044 0.419892 0.000000
0.088960 0.419892 0.000000
0.101855 0.419892 0.000000
0.117300 0.419892 0.000000
0.135798 0.419892 0.000000
0.157952 0.419892 0.000000
0.184486 0.419892 0.000000
0.216265 0.419892 0.000000
0.254325 0.419892 0.000000
0.299910 0.419892 0.000000
0.354505 0.419892 0.000000
0.419892 0.419892 0.000000
0.498204 0.419892 0.000000
0.591996 0.419892 0.000000
0.704329 0.419892 0.000000
0.838867 0.419892 0.000000
1.000000 0.419892 0.000000
0.000000 0.498204 0.000000
0.000347 0.498204 0.000000
0.001387 0.498204 0.000000
0.003122 0.498204 0.000000
0.005550 0.498204 0.000000
0.008672 0.498204 0.000000
0.012487 0.498204 0.000000
0.016996 0.498204 0.000000
0.022199 0.498204 0.000000
0.028096 0.498204 0.000000
0.034686 0.498204 0.000000
0.041970 0.498204 0.000000
0.049948 0.498204 0.000000
0.058619 0.498204 0.000000
0.067985 0.498204 0.000000
0.078044 0.498204 0.000000
0.088960 0.498204 0.000000
0.101855 0.498204 0.000000
0.117300 0.498204 0.000000
0.135798 0.498204 0.000000
0.157952 0.498204 0.000000
0.184486 0.498204 0.000000
0.216265 0.498204 0.000000
