luts/hlg_to_linear_exposure_1.903.cube
TITLE "HLG Scene with exposure of 1.903"
LUT_3D_SIZE 32
0.000000 0.000000 0.000000
0.001297 0.000000 0.000000
0.005189 0.000000 0.000000
0.011675 0.000000 0.000000
0.020756 0.000000 0.000000
0.032431 0.000000 0.000000
0.046700 0.000000 0.000000
0.063564 0.000000 0.000000
0.083022 0.000000 0.000000
0.105075 0.000000 0.000000
0.129723 0.000000 0.000000
0.156964 0.000000 0.000000
0.186800 0.000000 0.000000
0.219231 0.000000 0.000000
0.254256 0.000000 0.000000
0.291876 0.000000 0.000000
0.332700 0.000000 0.000000
0.380929 0.000000 0.000000
0.438691 0.000000 0.000000
0.507871 0.000000 0.000000
0.590726 0.000000 0.000000
0.689960 0.000000 0.000000
0.808809 0.000000 0.000000
0.951152 0.000000 0.000000
1.121632 0.000000 0.000000
1.325812 0.000000 0.000000
1.570353 0.000000 0.000000
1.863233 0.000000 0.000000
2.214007 0.000000 0.000000
2.634121 0.000000 0.000000
3.137280 0.000000 0.000000
3.739901 0.000000 0.000000
0.000000 0.001297 0.000000
0.001297 0.001297 0.000000
0.005189 0.001297 0.000000
0.011675 0.001297 0.000000
0.020756 0.001297 0.000000
0.032431 0.001297 0.000000
0.046700 0.001297 0.000000
0.063564 0.001297 0.000000
0.083022 0.001297 0.000000
0.105075 0.001297 0.000000
0.129723 0.001297 0.000000
0.156964 0.001297 0.000000
0.186800 0.001297 0.000000
0.219231 0.001297 0.000000
0.254256 0.001297 0.000000
0.291876 0.001297 0.000000
0.332700 0.001297 0.000000
0.380929 0.001297 0.000000
0.438691 0.001297 0.000000
0.507871 0.001297 0.000000
0.590726 0.001297 0.000000
0.689960 0.001297 0.000000
0.808809 0.001297 0.000000
0.951152 0.001297 0.000000
1.121632 0.001297 0.000000
1.325812 0.001297 0.000000
1.570353 0.001297 0.000000
1.863233 0.001297 0.000000
2.214007 0.001297 0.000000
2.634121 0.001297 0.000000
3.137280 0.001297 0.000000
3.739901 0.001297 0.000000
0.000000 0.005189 0.000000
0.001297 0.005189 0.000000
0.005189 0.005189 0.000000
0.011675 0.005189 0.000000
0.020756 0.005189 0.000000
0.032431 0.005189 0.000000
0.046700 0.005189 0.000000
0.063564 0.005189 0.000000
0.083022 0.005189 0.000000
0.105075 0.005189 0.000000
0.129723 0.005189 0.000000
0.156964 0.005189 0.000000
0.186800 0.005189 0.000000
0.219231 0.005189 0.000000
0.254256 0.005189 0.000000
0.291876 0.005189 0.000000
0.332700 0.005189 0.000000
0.380929 0.005189 0.000000
0.438691 0.005189 0.000000
0.507871 0.005189 0.000000
0.590726 0.005189 0.000000
0.689960 0.005189 0.000000
0.808809 0.005189 0.000000
0.951152 0.005189 0.000000
1.121632 0.005189 0.000000
1.325812 0.005189 0.000000
1.570353 0.005189 0.000000
1.863233 0.005189 0.000000
2.214007 0.005189 0.000000
2.634121 0.005189 0.000000
3.137280 0.005189 0.000000
3.739901 0.005189 0.000000
0.000000 0.011675 0.000000
0.001297 0.011675 0.000000
0.005189 0.011675 0.000000
0.011675 0.011675 0.000000
0.020756 0.011675 0.000000
0.032431 0.011675 0.000000
0.046700 0.011675 0.000000
0.063564 0.011675 0.000000
0.083022 0.011675 0.000000
0.105075 0.011675 0.000000
0.129723 0.011675 0.000000
0.156964 0.011675 0.000000
0.186800 0.011675 0.000000
0.219231 0.011675 0.000000
0.254256 0.011675 0.000000
0.291876 0.011675 0.000000
0.332700 0.011675 0.000000
0.380929 0.011675 0.000000
0.438691 0.011675 0.000000
0.507871 0.011675 0.000000
0.590726 0.011675 0.000000
0.689960 0.011675 0.000000
0.808809 0.011675 0.000000
0.951152 0.011675 0.000000
1.121632 0.011675 0.000000
1.325812 0.011675 0.000000
1.570353 0.011675 0.000000
1.863233 0.011675 0.000000
2.214007 0.011675 0.000000
2.634121 0.011675 0.000000
3.137280 0.011675 0.000000
3.739901 0.011675 0.000000
0.000000 0.020756 0.000000
0.001297 0.020756 0.000000
0.005189 0.020756 0.000000
0.011675 0.020756 0.000000
0.020756 0.020756 0.000000
0.032431 0.020756 0.000000
0.046700 0.020756 0.000000
0.063564 0.020756 0.000000
0.083022 0.020756 0.000000
0.105075 0.020756 0.000000
0.129723 0.020756 0.000000
0.156964 0.020756 0.000000
0.186800 0.020756 0.000000
0.219231 0.020756 0.000000
0.254256 0.020756 0.000000
0.291876 0.020756 0.000000
0.332700 0.020756 0.000000
0.380929 0.020756 0.000000
0.438691 0.020756 0.000000
0.507871 0.020756 0.000000
0.590726 0.020756 0.000000
0.689960 0.020756 0.000000
0.808809 0.020756 0.000000
0.951152 0.020756 0.000000
1.121632 0.020756 0.000000
1.325812 0.020756 0.000000
1.570353 0.020756 0.000000
1.863233 0.020756 0.000000
2.214007 0.020756 0.000000
2.634121 0.020756 0.000000
3.137280 0.020756 0.000000
3.739901 0.020756 0.000000
0.000000 0.032431 0.000000
0.001297 0.032431 0.000000
0.005189 0.032431 0.000000
0.011675 0.032431 0.000000
0.020756 0.032431 0.000000
0.032431 0.032431 0.000000
0.046700 0.032431 0.000000
0.063564 0.032431 0.000000
0.083022 0.032431 0.000000
0.105075 0.032431 0.000000
0.129723 0.032431 0.000000
0.156964 0.032431 0.000000
0.186800 0.032431 0.000000
0.219231 0.032431 0.000000
0.254256 0.032431 0.000000
0.291876 0.032431 0.000000
0.332700 0.032431 0.000000
0.380929 0.032431 0.000000
0.438691 0.032431 0.000000
0.507871 0.032431 0.000000
0.590726 0.032431 0.000000
0.689960 0.032431 0.000000
0.808809 0.032431 0.000000
0.951152 0.032431 0.000000
1.121632 0.032431 0.000000
1.325812 0.032431 0.000000
1.570353 0.032431 0.000000
1.863233 0.032431 0.000000
2.214007 0.032431 0.000000
2.634121 0.032431 0.000000
3.137280 0.032431 0.000000
3.739901 0.032431 0.000000
0.000000 0.046700 0.000000
0.001297 0.046700 0.000000
0.005189 0.046700 0.000000
0.011675 0.046700 0.000000
0.020756 0.046700 0.000000
0.032431 0.046700 0.000000
0.046700 0.046700 0.000000
0.063564 0.046700 0.000000
0.083022 0.046700 0.000000
0.105075 0.046700 0.000000
0.129723 0.046700 0.000000
0.156964 0.046700 0.000000
0.186800 0.046700 0.000000
0.219231 0.046700 0.000000
0.254256 0.046700 0.000000
0.291876 0.046700 0.000000
0.332700 0.046700 0.000000
0.380929 0.046700 0.000000
0.438691 0.046700 0.000000
0.507871 0.046700 0.000000
0.590726 0.046700 0.000000
0.689960 0.046700 0.000000
0.808809 0.046700 0.000000
0.951152 0.046700 0.000000
1.121632 0.046700 0.000000
1.325812 0.046700 0.000000
1.570353 0.046700 0.000000
1.863233 0.046700 0.000000
2.214007 0.046700 0.000000
2.634121 0.046700 0.000000
3.137280 0.046700 0.000000
3.739901 0.046700 0.000000
0.000000 0.063564 0.000000
0.001297 0.063564 0.000000
0.005189 0.063564 0.000000
0.011675 0.063564 0.000000
0.020756 0.063564 0.000000
0.032431 0.063564 0.000000
0.046700 0.063564 0.000000
0.063564 0.063564 0.000000
0.083022 0.063564 0.000000
0.105075 0.063564 0.000000
0.129723 0.063564 0.000000
0.156964 0.063564 0.000000
0.186800 0.063564 0.000000
0.219231 0.063564 0.000000
0.254256 0.063564 0.000000
0.291876 0.063564 0.000000
0.332700 0.063564 0.000000
0.380929 0.063564 0.000000
0.438691 0.063564 0.000000
0.507871 0.063564 0.000000
0.590726 0.063564 0.000000
0.689960 0.063564 0.000000
0.808809 0.063564 0.000000
0.951152 0.063564 0.000000
1.121632 0.063564 0.000000
1.325812 0.063564 0.000000
1.570353 0.063564 0.000000
1.863233 0.063564 0.000000
2.214007 0.063564 0.000000
2.634121 0.063564 0.000000
3.137280 0.063564 0.000000
3.739901 0.063564 0.000000
0.000000 0.083022 0.000000
0.001297 0.083022 0.000000
0.005189 0.083022 0.000000
0.011675 0.083022 0.000000
0.020756 0.083022 0.000000
0.032431 0.083022 0.000000
0.046700 0.083022 0.000000
0.063564 0.083022 0.000000
0.083022 0.083022 0.000000
0.105075 0.083022 0.000000
0.129723 0.083022 0.000000
0.156964 0.083022 0.000000
0.186800 0.083022 0.000000
0.219231 0.083022 0.000000
0.254256 0.083022 0.000000
0.291876 0.083022 0.000000
0.332700 0.083022 0.000000
0.380929 0.083022 0.000000
0.438691 0.083022 0.000000
0.507871 0.083022 0.000000
0.590726 0.083022 0.000000
0.689960 0.083022 0.000000
0.808809 0.083022 0.000000
0.951152 0.083022 0.000000
1.121632 0.083022 0.000000
1.325812 0.083022 0.000000
1.570353 0.083022 0.000000
1.863233 0.083022 0.000000
2.214007 0.083022 0.000000
2.634121 0.083022 0.000000
3.137280 0.083022 0.000000
3.739901 0.083022 0.000000
0.000000 0.105075 0.000000
0.001297 0.105075 0.000000
0.005189 0.105075 0.000000
0.011675 0.105075 0.000000
0.020756 0.105075 0.000000
0.032431 0.105075 0.000000
0.046700 0.105075 0.000000
0.063564 0.105075 0.000000
0.083022 0.105075 0.000000
0.105075 0.105075 0.000000
0.129723 0.105075 0.000000
0.156964 0.105075 0.000000
0.186800 0.105075 0.000000
0.219231 0.105075 0.000000
0.254256 0.105075 0.000000
0.291876 0.105075 0.000000
0.332700 0.105075 0.000000
0.380929 0.105075 0.000000
0.438691 0.105075 0.000000
0.507871 0.105075 0.000000
0.590726 0.105075 0.000000
0.689960 0.105075 0.000000
0.808809 0.105075 0.000000
0.951152 0.105075 0.000000
1.121632 0.105075 0.000000
1.325812 0.105075 0.000000
1.570353 0.105075 0.000000
1.863233 0.105075 0.000000
2.214007 0.105075 0.000000
2.634121 0.105075 0.000000
3.137280 0.105075 0.000000
3.739901 0.105075 0.000000
0.000000 0.129723 0.000000
0.001297 0.129723 0.000000
0.005189 0.129723 0.000000
0.011675 0.129723 0.000000
0.020756 0.129723 0.000000
0.032431 0.129723 0.000000
0.046700 0.129723 0.000000
0.063564 0.129723 0.000000
0.083022 0.129723 0.000000
0.105075 0.129723 0.000000
0.129723 0.129723 0.000000
0.156964 0.129723 0.000000
0.186800 0.129723 0.000000
0.219231 0.129723 0.000000
0.254256 0.129723 0.000000
0.291876 0.129723 0.000000
0.332700 0.129723 0.000000
0.380929 0.129723 0.000000
0.438691 0.129723 0.000000
0.507871 0.129723 0.000000
0.590726 0.129723 0.000000
0.689960 0.129723 0.000000
0.808809 0.129723 0.000000
0.951152 0.129723 0.000000
1.121632 0.129723 0.000000
1.325812 0.129723 0.000000
1.570353 0.129723 0.000000
1.863233 0.129723 0.000000
2.214007 0.129723 0.000000
2.634121 0.129723 0.000000
3.137280 0.129723 0.000000
3.739901 0.129723 0.000000
0.000000 0.156964 0.000000
0.001297 0.156964 0.000000
0.005189 0.156964 0.000000
0.011675 0.156964 0.000000
0.020756 0.156964 0.000000
0.032431 0.156964 0.000000
0.046700 0.156964 0.000000
0.063564 0.156964 0.000000
0.083022 0.156964 0.000000
0.105075 0.156964 0.000000
0.129723 0.156964 0.000000
0.156964 0.156964 0.000000
0.186800 0.156964 0.000000
0.219231 0.156964 0.000000
0.254256 0.156964 0.000000
0.291876 0.156964 0.000000
0.332700 0.156964 0.000000
0.380929 0.156964 0.000000
0.438691 0.156964 0.000000
0.507871 0.156964 0.000000
0.590726 0.156964 0.000000
0.689960 0.156964 0.000000
0.808809 0.156964 0.000000
0.951152 0.156964 0.000000
1.121632 0.156964 0.000000
1.325812 0.156964 0.000000
1.570353 0.156964 0.000000
1.863233 0.156964 0.000000
2.214007 0.156964 0.000000
2.634121 0.156964 0.000000
3.137280 0.156964 0.000000
3.739901 0.156964 0.000000
0.000000 0.186800 0.000000
0.001297 0.186800 0.000000
0.005189 0.186800 0.000000
0.011675 0.186800 0.000000
0.020756 0.186800 0.000000
0.032431 0.186800 0.000000
0.046700 0.186800 0.000000
0.063564 0.186800 0.000000
0.083022 0.186800 0.000000
0.105075 0.186800 0.000000
0.129723 0.186800 0.000000
0.156964 0.186800 0.000000
0.186800 0.186800 0.000000
0.219231 0.186800 0.000000
0.254256 0.186800 0.000000
0.291876 0.186800 0.000000
0.332700 0.186800 0.000000
0.380929 0.186800 0.000000
0.438691 0.186800 0.000000
0.507871 0.186800 0.000000
0.590726 0.186800 0.000000
0.689960 0.186800 0.000000
0.808809 0.186800 0.000000
0.951152 0.186800 0.000000
1.121632 0.186800 0.000000
1.325812 0.186800 0.000000
1.570353 0.186800 0.000000
1.863233 0.186800 0.000000
2.214007 0.186800 0.000000
2.634121 0.186800 0.000000
3.137280 0.186800 0.000000
3.739901 0.186800 0.000000
0.000000 0.219231 0.000000
0.001297 0.219231 0.000000
0.005189 0.219231 0.000000
0.011675 0.219231 0.000000
0.020756 0.219231 0.000000
0.032431 0.219231 0.000000
0.046700 0.219231 0.000000
0.063564 0.219231 0.000000
0.083022 0.219231 0.000000
0.105075 0.219231 0.000000
0.129723 0.219231 0.000000
0.156964 0.219231 0.000000
0.186800 0.219231 0.000000
0.219231 0.219231 0.000000
0.254256 0.219231 0.000000
0.291876 0.219231 0.000000
0.332700 0.219231 0.000000
0.380929 0.219231 0.000000
0.438691 0.219231 0.000000
0.507871 0.219231 0.000000
0.590726 0.219231 0.000000
0.689960 0.219231 0.000000
0.808809 0.219231 0.000000
0.951152 0.219231 0.000000
1.121632 0.219231 0.000000
1.325812 0.219231 0.000000
1.570353 0.219231 0.000000
1.863233 0.219231 0.000000
2.214007 0.219231 0.000000
2.634121 0.219231 0.000000
3.137280 0.219231 0.000000
3.739901 0.219231 0.000000
0.000000 0.254256 0.000000
0.001297 0.254256 0.000000
0.005189 0.254256 0.000000
0.011675 0.254256 0.000000
0.020756 0.254256 0.000000
0.032431 0.254256 0.000000
0.046700 0.254256 0.000000
0.063564 0.254256 0.000000
0.083022 0.254256 0.000000
0.105075 0.254256 0.000000
0.129723 0.254256 0.000000
0.156964 0.254256 0.000000
0.186800 0.254256 0.000000
0.219231 0.254256 0.000000
0.254256 0.254256 0.000000
0.291876 0.254256 0.000000
0.332700 0.254256 0.000000
0.380929 0.254256 0.000000
0.438691 0.254256 0.000000
0.507871 0.254256 0.000000
0.590726 0.254256 0.000000
0.689960 0.254256 0.000000
0.808809 0.254256 0.000000
0.951152 0.254256 0.000000
1.121632 0.254256 0.000000
1.325812 0.254256 0.000000
1.570353 0.254256 0.000000
1.863233 0.254256 0.000000
2.214007 0.254256 0.000000
2.634121 0.254256 0.000000
3.137280 0.254256 0.000000
3.739901 0.254256 0.000000
0.000000 0.291876 0.000000
0.001297 0.291876 0.000000
0.005189 0.291876 0.000000
0.011675 0.291876 0.000000
0.020756 0.291876 0.000000
0.032431 0.291876 0.000000
0.046700 0.291876 0.000000
0.063564 0.291876 0.000000
0.083022 0.291876 0.000000
0.105075 0.291876 0.000000
0.129723 0.291876 0.000000
0.156964 0.291876 0.000000
0.186800 0.291876 0.000000
0.219231 0.291876 0.000000
0.254256 0.291876 0.000000
0.291876 0.291876 0.000000
0.332700 0.291876 0.000000
0.380929 0.291876 0.000000
0.438691 0.291876 0.000000
0.507871 0.291876 0.000000
0.590726 0.291876 0.000000
0.689960 0.291876 0.000000
0.808809 0.291876 0.000000
0.951152 0.291876 0.000000
1.121632 0.291876 0.000000
1.325812 0.291876 0.000000
1.570353 0.291876 0.000000
1.863233 0.291876 0.000000
2.214007 0.291876 0.000000
2.634121 0.291876 0.000000
3.137280 0.291876 0.000000
3.739901 0.291876 0.000000
0.000000 0.332700 0.000000
0.001297 0.332700 0.000000
0.005189 0.332700 0.000000
0.011675 0.332700 0.000000
0.020756 0.332700 0.000000
0.032431 0.332700 0.000000
0.046700 0.332700 0.000000
0.063564 0.332700 0.000000
0.083022 0.332700 0.000000
0.105075 0.332700 0.000000
0.129723 0.332700 0.000000
0.156964 0.332700 0.000000
0.186800 0.332700 0.000000
0.219231 0.332700 0.000000
0.254256 0.332700 0.000000
0.291876 0.332700 0.000000
0.332700 0.332700 0.000000
0.380929 0.332700 0.000000
0.438691 0.332700 0.000000
0.507871 0.332700 0.000000
0.590726 0.332700 0.000000
0.689960 0.332700 0.000000
0.808809 0.332700 0.000000
0.951152 0.332700 0.000000
1.121632 0.332700 0.000000
1.325812 0.332700 0.000000
1.570353 0.332700 0.000000
1.863233 0.332700 0.000000
2.214007 0.332700 0.000000
2.634121 0.332700 0.000000
3.137280 0.332700 0.000000
3.739901 0.332700 0.000000
0.000000 0.380929 0.000000
0.001297 0.380929 0.000000
0.005189 0.380929 0.000000
0.011675 0.380929 0.000000
0.020756 0.380929 0.000000
0.032431 0.380929 0.000000
0.046700 0.380929 0.000000
0.063564 0.380929 0.000000
0.083022 0.380929 0.000000
0.105075 0.380929 0.000000
0.129723 0.380929 0.000000
0.156964 0.380929 0.000000
0.186800 0.380929 0.000000
0.219231 0.380929 0.000000
0.254256 0.380929 0.000000
0.291876 0.380929 0.000000
0.332700 0.380929 0.000000
0.380929 0.380929 0.000000
0.438691 0.380929 0.000000
0.507871 0.380929 0.000000
0.590726 0.380929 0.000000
0.689960 0.380929 0.000000
0.808809 0.380929 0.000000
0.951152 0.380929 0.000000
1.121632 0.380929 0.000000
1.325812 0.380929 0.000000
1.570353 0.380929 0.000000
1.863233 0.380929 0.000000
2.214007 0.380929 0.000000
2.634121 0.380929 0.000000
3.137280 0.380929 0.000000
3.739901 0.380929 0.000000
0.000000 0.438691 0.000000
0.001297 0.438691 0.000000
0.005189 0.438691 0.000000
0.011675 0.438691 0.000000
0.020756 0.438691 0.000000
0.032431 0.438691 0.000000
0.046700 0.438691 0.000000
0.063564 0.438691 0.000000
0.083022 0.438691 0.000000
0.105075 0.438691 0.000000
0.129723 0.438691 0.000000
0.156964 0.438691 0.000000
0.186800 0.438691 0.000000
0.219231 0.438691 0.000000
0.254256 0.438691 0.000000
0.291876 0.438691 0.000000
0.332700 0.438691 0.000000
0.380929 0.438691 0.000000
0.438691 0.438691 0.000000
0.507871 0.438691 0.000000
0.590726 0.438691 0.000000
0.689960 0.438691 0.000000
0.808809 0.438691 0.000000
0.951152 0.438691 0.000000
1.121632 0.438691 0.000000
1.325812 0.438691 0.000000
1.570353 0.438691 0.000000
1.863233 0.438691 0.000000
2.214007 0.438691 0.000000
2.634121 0.438691 0.000000
3.137280 0.438691 0.000000
3.739901 0.438691 0.000000
0.000000 0.507871 0.000000
0.001297 0.507871 0.000000
0.005189 0.507871 0.000000
0.011675 0.507871 0.000000
0.020756 0.507871 0.000000
0.032431 0.507871 0.000000
0.046700 0.507871 0.000000
0.063564 0.507871 0.000000
0.083022 0.507871 0.000000
0.105075 0.507871 0.000000
0.129723 0.507871 0.000000
0.156964 0.507871 0.000000
0.186800 0.507871 0.000000
0.219231 0.507871 0.000000
0.254256 0.507871 0.000000
0.291876 0.507871 0.000000
0.332700 0.507871 0.000000
0.380929 0.507871 0.000000
0.438691 0.507871 0.000000
0.507871 0.507871 0.000000
0.590726 0.507871 0.000000
0.689960 0.507871 0.000000
0.808809 0.507871 0.000000
0.951152 0.507871 0.000000
1.121632 0.507871 0.000000
1.325812 0.507871 0.000000
1.570353 0.507871 0.000000
1.863233 0.507871 0.000000
2.214007 0.507871 0.000000
2.634121 0.507871 0.000000
3.137280 0.507871 0.000000
3.739901 0.507871 0.000000
0.000000 0.590726 0.000000
0.001297 0.590726 0.000000
0.005189 0.590726 0.000000
0.011675 0.590726 0.000000
0.020756 0.590726 0.000000
0.032431 0.590726 0.000000
0.046700 0.590726 0.000000
0.063564 0.590726 0.000000
0.083022 0.590726 0.000000
0.105075 0.590726 0.000000
0.129723 0.590726 0.000000
0.156964 0.590726 0.000000
0.186800 0.590726 0.000000
0.219231 0.590726 0.000000
0.254256 0.590726 0.000000
0.291876 0.590726 0.000000
0.332700 0.590726 0.000000
0.380929 0.590726 0.000000
0.438691 0.590726 0.000000
0.507871 0.590726 0.000000
0.590726 0.590726 0.000000
0.689960 0.590726 0.000000
0.808809 0.590726 0.000000
0.951152 0.590726 0.000000
1.121632 0.590726 0.000000
1.325812 0.590726 0.000000
1.570353 0.590726 0.000000
1.863233 0.590726 0.000000
2.214007 0.590726 0.000000
2.634121 0.590726 0.000000
3.137280 0.590726 0.000000
3.739901 0.590726 0.000000
0.000000 0.689960 0.000000
0.001297 0.689960 0.000000
0.005189 0.689960 0.000000
0.011675 0.689960 0.000000
0.020756 0.689960 0.000000
0.032431 0.689960 0.000000
0.046700 0.689960 0.000000
0.063564 0.689960 0.000000
0.083022 0.689960 0.000000
0.105075 0.689960 0.000000
0.129723 0.689960 0.000000
0.156964 0.689960 0.000000
0.186800 0.689960 0.000000
0.219231 0.689960 0.000000
0.254256 0.689960 0.000000
0.291876 0.689960 0.000000
0.332700 0.689960 0.000000
0.380929 0.689960 0.000000
0.438691 0.689960 0.000000
0.507871 0.689960 0.000000
0.590726 0.689960 0.000000
0.689960 0.689960 0.000000
0.808809 0.689960 0.000000
0.951152 0.689960 0.000000
1.121632 0.689960 0.000000
1.325812 0.689960 0.000000
1.570353 0.689960 0.000000
1.863233 0.689960 0.000000
2.214007 0.689960 0.000000
2.634121 0.689960 0.000000
3.137280 0.689960 0.000000
3.739901 0.689960 0.000000
0.000000 0.808809 0.000000
0.001297 0.808809 0.000000
0.005189 0.808809 0.000000
0.011675 0.808809 0.000000
0.020756 0.808809 0.000000
0.032431 0.808809 0.000000
0.046700 0.808809 0.000000
0.063564 0.808809 0.000000
0.083022 0.808809 0.000000
0.105075 0.808809 0.000000
0.129723 0.808809 0.000000
0.156964 0.808809 0.000000
0.186800 0.808809 0.000000
0.219231 0.808809 0.000000
0.254256 0.808809 0.000000
0.291876 0.808809 0.000000
0.332700 0.808809 0.000000
0.380929 0.808809 0.000000
0.438691 0.808809 0.000000
0.507871 0.808809 0.000000
0.590726 0.808809 0.000000
0.689960 0.808809 0.000000
0.808809 0.808809 0.000000
0.951152 0.808809 0.000000
1.121632 0.808809 0.000000
1.325812 0.808809 0.000000
1.570353 0.808809 0.000000
1.863233 0.808809 0.000000
2.214007 0.808809 0.000000
2.634121 0.808809 0.000000
3.137280 0.808809 0.000000
3.739901 0.808809 0.000000
0.000000 0.951152 0.000000
0.001297 0.951152 0.000000
0.005189 0.951152 0.000000
0.011675 0.951152 0.000000
0.020756 0.951152 0.000000
0.032431 0.951152 0.000000
0.046700 0.951152 0.000000
0.063564 0.951152 0.000000
0.083022 0.951152 0.000000
0.105075 0.951152 0.000000
0.129723 0.951152 0.000000
0.156964 0.951152 0.000000
0.186800 0.951152 0.000000
0.219231 0.951152 0.000000
0.254256 0.951152 0.000000
0.291876 0.951152 0.000000
0.332700 0.951152 0.000000
0.380929 0.951152 0.000000
0.438691 0.951152 0.000000
0.507871 0.951152 0.000000
0.590726 0.951152 0.000000
0.689960 0.951152 0.000000
0.808809 0.951152 0.000000
0.951152 0.951152 0.000000
1.121632 0.951152 0.000000
1.325812 0.951152 0.000000
1.570353 0.951152 0.000000
1.863233 0.951152 0.000000
2.214007 0.951152 0.000000
2.634121 0.951152 0.000000
3.137280 0.951152 0.000000
3.739901 0.951152 0.000000
0.000000 1.121632 0.000000
0.001297 1.121632 0.000000
0.005189 1.121632 0.000000
0.011675 1.121632 0.000000
0.020756 1.121632 0.000000
0.032431 1.121632 0.000000
0.046700 1.121632 0.000000
0.063564 1.121632 0.000000
0.083022 1.121632 0.000000
0.105075 1.121632 0.000000
0.129723 1.121632 0.000000
0.156964 1.121632 0.000000
0.186800 1.121632 0.000000
0.219231 1.121632 0.000000
0.254256 1.121632 0.000000
0.291876 1.121632 0.000000
0.332700 1.121632 0.000000
0.380929 1.121632 0.000000
0.438691 1.121632 0.000000
0.507871 1.121632 0.000000
0.590726 1.121632 0.000000
0.689960 1.121632 0.000000
0.808809 1.121632 0.000000
0.951152 1.121632 0.000000
1.121632 1.121632 0.000000
1.325812 1.121632 0.000000
1.570353 1.121632 0.000000
1.863233 1.121632 0.000000
2.214007 1.121632 0.000000
2.634121 1.121632 0.000000
3.137280 1.121632 0.000000
3.739901 1.121632 0.000000
0.000000 1.325812 0.000000
0.001297 1.325812 0.000000
0.005189 1.325812 0.000000
0.011675 1.325812 0.000000
0.020756 1.325812 0.000000
0.032431 1.325812 0.000000
0.046700 1.325812 0.000000
0.063564 1.325812 0.000000
0.083022 1.325812 0.000000
0.105075 1.325812 0.000000
0.129723 1.325812 0.000000
0.156964 1.325812 0.000000
0.186800 1.325812 0.000000
0.219231 1.325812 0.000000
0.254256 1.325812 0.000000
0.291876 1.325812 0.000000
0.332700 1.325812 0.000000
0.380929 1.325812 0.000000
0.438691 1.325812 0.000000
0.507871 1.325812 0.000000
0.590726 1.325812 0.000000
0.689960 1.325812 0.000000
0.808809 1.325812 0.000000
0.951152 1.325812 0.000000
1.121632 1.325812 0.000000
1.325812 1.325812 0.000000
1.570353 1.325812 0.000000
1.863233 1.325812 0.000000
2.214007 1.325812 0.000000
2.634121 1.325812 0.000000
3.137280 1.325812 0.000000
3.739901 1.325812 0.000000
0.000000 1.570353 0.000000
0.001297 1.570353 0.000000
0.005189 1.570353 0.000000
0.011675 1.570353 0.000000
0.020756 1.570353 0.000000
0.032431 1.570353 0.000000
0.046700 1.570353 0.000000
0.063564 1.570353 0.000000
0.083022 1.570353 0.000000
0.105075 1.570353 0.000000
0.129723 1.570353 0.000000
0.156964 1.570353 0.000000
0.186800 1.570353 0.000000
0.219231 1.570353 0.000000
0.254256 1.570353 0.000000
0.291876 1.570353 0.000000
0.332700 1.570353 0.000000
0.380929 1.570353 0.000000
0.438691 1.570353 0.000000
0.507871 1.570353 0.000000
0.590726 1.570353 0.000000
0.689960 1.570353 0.000000
0.808809 1.570353 0.000000
0.951152 1.570353 0.000000
1.121632 1.570353 0.000000
1.325812 1.570353 0.000000
1.570353 1.570353 0.000000
1.863233 1.570353 0.000000
2.214007 1.570353 0.000000
2.634121 1.570353 0.000000
3.137280 1.570353 0.000000
3.739901 1.570353 0.000000
0.000000 1.863233 0.000000
0.001297 1.863233 0.000000
0.005189 1.863233 0.000000
0.011675 1.863233 0.000000
0.020756 1.863233 0.000000
0.032431 1.863233 0.000000
0.046700 1.863233 0.000000
0.063564 1.863233 0.000000
0.083022 1.863233 0.000000
0.105075 1.863233 0.000000
0.129723 1.863233 0.000000
0.156964 1.863233 0.000000
0.186800 1.863233 0.000000
0.219231 1.863233 0.000000
0.254256 1.863233 0.000000
0.291876 1.863233 0.000000
0.332700 1.863233 0.000000
0.380929 1.863233 0.000000
0.438691 1.863233 0.000000
0.507871 1.863233 0.000000
0.590726 1.863233 0.000000
0.689960 1.863233 0.000000
