luts/hlg_to_linear_exposure_1.903.cube
TITLE "HLG Scene with exposure of 1.903"
LUT_3D_SIZE 8
DOMAIN_MIN 0.000000 0.000000 0.000000
DOMAIN_MAX 0.903226 0.903226 0.903226
0.000000 0.000000 0.000000
0.020756 0.000000 0.000000
0.083022 0.000000 0.000000
0.186800 0.000000 0.000000
0.332700 0.000000 0.000000
0.590726 0.000000 0.000000
1.121632 0.000000 0.000000
2.214007 0.000000 0.000000
0.000000 0.020756 0.000000
0.020756 0.020756 0.000000
0.083022 0.020756 0.000000
0.186800 0.020756 0.000000
0.332700 0.020756 0.000000
0.590726 0.020756 0.000000
1.121632 0.020756 0.000000
2.214007 0.020756 0.000000
0.000000 0.083022 0.000000
0.020756 0.083022 0.000000
0.083022 0.083022 0.000000
0.186800 0.083022 0.000000
0.332700 0.083022 0.000000
0.590726 0.083022 0.000000
1.121632 0.083022 0.000000
2.214007 0.083022 0.000000
0.000000 0.186800 0.000000
0.020756 0.186800 0.000000
0.083022 0.186800 0.000000
0.186800 0.186800 0.000000
0.332700 0.186800 0.000000
0.590726 0.186800 0.000000
1.121632 0.186800 0.000000
2.214007 0.186800 0.000000
0.000000 0.332700 0.000000
0.020756 0.332700 0.000000
0.083022 0.332700 0.000000
0.186800 0.332700 0.000000
0.332700 0.332700 0.000000
0.590726 0.332700 0.000000
1.121632 0.332700 0.000000
2.214007 0.332700 0.000000
0.000000 0.590726 0.000000
0.020756 0.590726 0.000000
0.083022 0.590726 0.000000
0.186800 0.590726 0.000000
0.332700 0.590726 0.000000
0.590726 0.590726 0.000000
1.121632 0.590726 0.000000
2.214007 0.590726 0.000000
0.000000 1.121632 0.000000
0.020756 1.121632 0.000000
0.083022 1.121632 0.000000
0.186800 1.121632 0.000000
0.332700 1.121632 0.000000
0.590726 1.121632 0.000000
1.121632 1.121632 0.000000
2.214007 1.121632 0.000000
0.000000 2.214007 0.000000
0.020756 2.214007 0.000000
0.083022 2.214007 0.000000
0.186800 2.214007 0.000000
0.332700 2.214007 0.000000
0.590726 2.214007 0.000000
1.121632 2.214007 0.000000
2.214007 2.214007 0.000000
0.000000 0.000000 0.020756
0.020756 0.000000 0.020756
0.083022 0.000000 0.020756
0.186800 0.000000 0.020756
0.332700 0.000000 0.020756
0.590726 0.000000 0.020756
1.121632 0.000000 0.020756
2.214007 0.000000 0.020756
0.000000 0.020756 0.020756
0.020756 0.020756 0.020756
0.083022 0.020756 0.020756
0.186800 0.020756 0.020756
0.332700 0.020756 0.020756
0.590726 0.020756 0.020756
1.121632 0.020756 0.020756
2.214007 0.020756 0.020756
0.000000 0.083022 0.020756
0.020756 0.083022 0.020756
0.083022 0.083022 0.020756
0.186800 0.083022 0.020756
0.332700 0.083022 0.020756
0.590726 0.083022 0.020756
1.121632 0.083022 0.020756
2.214007 0.083022 0.020756
0.000000 0.186800 0.020756
0.020756 0.186800 0.020756
0.083022 0.186800 0.020756
0.186800 0.186800 0.020756
0.332700 0.186800 0.020756
0.590726 0.186800 0.020756
1.121632 0.186800 0.020756
2.214007 0.186800 0.020756
0.000000 0.332700 0.020756
0.020756 0.332700 0.020756
0.083022 0.332700 0.020756
0.186800 0.332700 0.020756
0.332700 0.332700 0.020756
0.590726 0.332700 0.020756
1.121632 0.332700 0.020756
2.214007 0.332700 0.020756
0.000000 0.590726 0.020756
0.020756 0.590726 0.020756
0.083022 0.590726 0.020756
0.186800 0.590726 0.020756
0.332700 0.590726 0.020756
0.590726 0.590726 0.020756
1.121632 0.590726 0.020756
2.214007 0.590726 0.020756
0.000000 1.121632 0.020756
0.020756 1.121632 0.020756
0.083022 1.121632 0.020756
0.186800 1.121632 0.020756
0.332700 1.121632 0.020756
0.590726 1.121632 0.020756
1.121632 1.121632 0.020756
2.214007 1.121632 0.020756
0.000000 2.214007 0.020756
0.020756 2.214007 0.020756
0.083022 2.214007 0.020756
0.186800 2.214007 0.020756
0.332700 2.214007 0.020756
0.590726 2.214007 0.020756
1.121632 2.214007 0.020756
2.214007 2.214007 0.020756
0.000000 0.000000 0.083022
0.020756 0.000000 0.083022
0.083022 0.000000 0.083022
0.186800 0.000000 0.083022
0.332700 0.000000 0.083022
0.590726 0.000000 0.083022
1.121632 0.000000 0.083022
2.214007 0.000000 0.083022
0.000000 0.020756 0.083022
0.020756 0.020756 0.083022
0.083022 0.020756 0.083022
0.186800 0.020756 0.083022
0.332700 0.020756 0.083022
0.590726 0.020756 0.083022
1.121632 0.020756 0.083022
2.214007 0.020756 0.083022
0.000000 0.083022 0.083022
0.020756 0.083022 0.083022
0.083022 0.083022 0.083022
0.186800 0.083022 0.083022
0.332700 0.083022 0.083022
0.590726 0.083022 0.083022
1.121632 0.083022 0.083022
2.214007 0.083022 0.083022
0.000000 0.186800 0.083022
0.020756 0.186800 0.083022
0.083022 0.186800 0.083022
0.186800 0.186800 0.083022
0.332700 0.186800 0.083022
0.590726 0.186800 0.083022
1.121632 0.186800 0.083022
2.214007 0.186800 0.083022
0.000000 0.332700 0.083022
0.020756 0.332700 0.083022
0.083022 0.332700 0.083022
0.186800 0.332700 0.083022
0.332700 0.332700 0.083022
0.590726 0.332700 0.083022
1.121632 0.332700 0.083022
2.214007 0.332700 0.083022
0.000000 0.590726 0.083022
0.020756 0.590726 0.083022
0.083022 0.590726 0.083022
0.186800 0.590726 0.083022
0.332700 0.590726 0.083022
0.590726 0.590726 0.083022
1.121632 0.590726 0.083022
2.214007 0.590726 0.083022
0.000000 1.121632 0.083022
0.020756 1.121632 0.083022
0.083022 1.121632 0.083022
0.186800 1.121632 0.083022
0.332700 1.121632 0.083022
0.590726 1.121632 0.083022
1.121632 1.121632 0.083022
2.214007 1.121632 0.083022
0.000000 2.214007 0.083022
0.020756 2.214007 0.083022
0.083022 2.214007 0.083022
0.186800 2.214007 0.083022
0.332700 2.214007 0.083022
0.590726 2.214007 0.083022
1.121632 2.214007 0.083022
2.214007 2.214007 0.083022
0.000000 0.000000 0.186800
0.020756 0.000000 0.186800
0.083022 0.000000 0.186800
0.186800 0.000000 0.186800
0.332700 0.000000 0.186800
0.590726 0.000000 0.186800
1.121632 0.000000 0.186800
2.214007 0.000000 0.186800
0.000000 0.020756 0.186800
0.020756 0.020756 0.186800
0.083022 0.020756 0.186800
0.186800 0.020756 0.186800
0.332700 0.020756 0.186800
0.590726 0.020756 0.186800
1.121632 0.020756 0.186800
2.214007 0.020756 0.186800
0.000000 0.083022 0.186800
0.020756 0.083022 0.186800
0.083022 0.083022 0.186800
0.186800 0.083022 0.186800
0.332700 0.083022 0.186800
0.590726 0.083022 0.186800
1.121632 0.083022 0.186800
2.214007 0.083022 0.186800
0.000000 0.186800 0.186800
0.020756 0.186800 0.186800
0.083022 0.186800 0.186800
0.186800 0.186800 0.186800
0.332700 0.186800 0.186800
0.590726 0.186800 0.186800
1.121632 0.186800 0.186800
2.214007 0.186800 0.186800
0.000000 0.332700 0.186800
0.020756 0.332700 0.186800
0.083022 0.332700 0.186800
0.186800 0.332700 0.186800
0.332700 0.332700 0.186800
0.590726 0.332700 0.186800
1.121632 0.332700 0.186800
2.214007 0.332700 0.186800
0.000000 0.590726 0.186800
0.020756 0.590726 0.186800
0.083022 0.590726 0.186800
0.186800 0.590726 0.186800
0.332700 0.590726 0.186800
0.590726 0.590726 0.186800
1.121632 0.590726 0.186800
2.214007 0.590726 0.186800
0.000000 1.121632 0.186800
0.020756 1.121632 0.186800
0.083022 1.121632 0.186800
0.186800 1.121632 0.186800
0.332700 1.121632 0.186800
0.590726 1.121632 0.186800
1.121632 1.121632 0.186800
2.214007 1.121632 0.186800
0.000000 2.214007 0.186800
0.020756 2.214007 0.186800
0.083022 2.214007 0.186800
0.186800 2.214007 0.186800
0.332700 2.214007 0.186800
0.590726 2.214007 0.186800
1.121632 2.214007 0.186800
2.214007 2.214007 0.186800
0.000000 0.000000 0.332700
0.020756 0.000000 0.332700
0.083022 0.000000 0.332700
0.186800 0.000000 0.332700
0.332700 0.000000 0.332700
0.590726 0.000000 0.332700
1.121632 0.000000 0.332700
2.214007 0.000000 0.332700
0.000000 0.020756 0.332700
0.020756 0.020756 0.332700
0.083022 0.020756 0.332700
0.186800 0.020756 0.332700
0.332700 0.020756 0.332700
0.590726 0.020756 0.332700
1.121632 0.020756 0.332700
2.214007 0.020756 0.332700
0.000000 0.083022 0.332700
0.020756 0.083022 0.332700
0.083022 0.083022 0.332700
0.186800 0.083022 0.332700
0.332700 0.083022 0.332700
0.590726 0.083022 0.332700
1.121632 0.083022 0.332700
2.214007 0.083022 0.332700
0.000000 0.186800 0.332700
0.020756 0.186800 0.332700
0.083022 0.186800 0.332700
0.186800 0.186800 0.332700
0.332700 0.186800 0.332700
0.590726 0.186800 0.332700
1.121632 0.186800 0.332700
2.214007 0.186800 0.332700
0.000000 0.332700 0.332700
0.020756 0.332700 0.332700
0.083022 0.332700 0.332700
0.186800 0.332700 0.332700
0.332700 0.332700 0.332700
0.590726 0.332700 0.332700
1.121632 0.332700 0.332700
2.214007 0.332700 0.332700
0.000000 0.590726 0.332700
0.020756 0.590726 0.332700
0.083022 0.590726 0.332700
0.186800 0.590726 0.332700
0.332700 0.590726 0.332700
0.590726 0.590726 0.332700
1.121632 0.590726 0.332700
2.214007 0.590726 0.332700
0.000000 1.121632 0.332700
0.020756 1.121632 0.332700
0.083022 1.121632 0.332700
0.186800 1.121632 0.332700
0.332700 1.121632 0.332700
0.590726 1.121632 0.332700
1.121632 1.121632 0.332700
2.214007 1.121632 0.332700
0.000000 2.214007 0.332700
0.020756 2.214007 0.332700
0.083022 2.214007 0.332700
0.186800 2.214007 0.332700
0.332700 2.214007 0.332700
0.590726 2.214007 0.332700
1.121632 2.214007 0.332700
2.214007 2.214007 0.332700
0.000000 0.000000 0.590726
0.020756 0.000000 0.590726
0.083022 0.000000 0.590726
0.186800 0.000000 0.590726
0.332700 0.000000 0.590726
0.590726 0.000000 0.590726
1.121632 0.000000 0.590726
2.214007 0.000000 0.590726
0.000000 0.020756 0.590726
0.020756 0.020756 0.590726
0.083022 0.020756 0.590726
0.186800 0.020756 0.590726
0.332700 0.020756 0.590726
0.590726 0.020756 0.590726
1.121632 0.020756 0.590726
2.214007 0.020756 0.590726
0.000000 0.083022 0.590726
0.020756 0.083022 0.590726
0.083022 0.083022 0.590726
0.186800 0.083022 0.590726
0.332700 0.083022 0.590726
0.590726 0.083022 0.590726
1.121632 0.083022 0.590726
2.214007 0.083022 0.590726
0.000000 0.186800 0.590726
0.020756 0.186800 0.590726
0.083022 0.186800 0.590726
0.186800 0.186800 0.590726
0.332700 0.186800 0.590726
0.590726 0.186800 0.590726
1.121632 0.186800 0.590726
2.214007 0.186800 0.590726
0.000000 0.332700 0.590726
0.020756 0.332700 0.590726
0.083022 0.332700 0.590726
0.186800 0.332700 0.590726
0.332700 0.332700 0.590726
0.590726 0.332700 0.590726
1.121632 0.332700 0.590726
2.214007 0.332700 0.590726
0.000000 0.590726 0.590726
0.020756 0.590726 0.590726
0.083022 0.590726 0.590726
0.186800 0.590726 0.590726
0.332700 0.590726 0.590726
0.590726 0.590726 0.590726
1.121632 0.590726 0.590726
2.214007 0.590726 0.590726
0.000000 1.121632 0.590726
0.020756 1.121632 0.590726
0.083022 1.121632 0.590726
0.186800 1.121632 0.590726
0.332700 1.121632 0.590726
0.590726 1.121632 0.590726
1.121632 1.121632 0.590726
2.214007 1.121632 0.590726
0.000000 2.214007 0.590726
0.020756 2.214007 0.590726
0.083022 2.214007 0.590726
0.186800 2.214007 0.590726
0.332700 2.214007 0.590726
0.590726 2.214007 0.590726
1.121632 2.214007 0.590726
2.214007 2.214007 0.590726
0.000000 0.000000 1.121632
0.020756 0.000000 1.121632
0.083022 0.000000 1.121632
0.186800 0.000000 1.121632
0.332700 0.000000 1.121632
0.590726 0.000000 1.121632
1.121632 0.000000 1.121632
2.214007 0.000000 1.121632
0.000000 0.020756 1.121632
0.020756 0.020756 1.121632
0.083022 0.020756 1.121632
0.186800 0.020756 1.121632
0.332700 0.020756 1.121632
0.590726 0.020756 1.121632
1.121632 0.020756 1.121632
2.214007 0.020756 1.121632
0.000000 0.083022 1.121632
0.020756 0.083022 1.121632
0.083022 0.083022 1.121632
0.186800 0.083022 1.121632
0.332700 0.083022 1.121632
0.590726 0.083022 1.121632
1.121632 0.083022 1.121632
2.214007 0.083022 1.121632
0.000000 0.186800 1.121632
0.020756 0.186800 1.121632
0.083022 0.186800 1.121632
0.186800 0.186800 1.121632
0.332700 0.186800 1.121632
0.590726 0.186800 1.121632
1.121632 0.186800 1.121632
2.214007 0.186800 1.121632
0.000000 0.332700 1.121632
0.020756 0.332700 1.121632
0.083022 0.332700 1.121632
0.186800 0.332700 1.121632
0.332700 0.332700 1.121632
0.590726 0.332700 1.121632
1.121632 0.332700 1.121632
2.214007 0.332700 1.121632
0.000000 0.590726 1.121632
0.020756 0.590726 1.121632
0.083022 0.590726 1.121632
0.186800 0.590726 1.121632
0.332700 0.590726 1.121632
0.590726 0.590726 1.121632
1.121632 0.590726 1.121632
2.214007 0.590726 1.121632
0.000000 1.121632 1.121632
0.020756 1.121632 1.121632
0.083022 1.121632 1.121632
0.186800 1.121632 1.121632
0.332700 1.121632 1.121632
0.590726 1.121632 1.121632
1.121632 1.121632 1.121632
2.214007 1.121632 1.121632
0.000000 2.214007 1.121632
0.020756 2.214007 1.121632
0.083022 2.214007 1.121632
0.186800 2.214007 1.121632
0.332700 2.214007 1.121632
0.590726 2.214007 1.121632
1.121632 2.214007 1.121632
2.214007 2.214007 1.121632
0.000000 0.000000 2.214007
0.020756 0.000000 2.214007
0.083022 0.000000 2.214007
0.186800 0.000000 2.214007
0.332700 0.000000 2.214007
0.590726 0.000000 2.214007
1.121632 0.000000 2.214007
2.214007 0.000000 2.214007
0.000000 0.020756 2.214007
0.020756 0.020756 2.214007
0.083022 0.020756 2.214007
0.186800 0.020756 2.214007
0.332700 0.020756 2.214007
0.590726 0.020756 2.214007
1.121632 0.020756 2.214007
2.214007 0.020756 2.214007
0.000000 0.083022 2.214007
0.020756 0.083022 2.214007
0.083022 0.083022 2.214007
0.186800 0.083022 2.214007
0.332700 0.083022 2.214007
0.590726 0.083022 2.214007
1.121632 0.083022 2.214007
2.214007 0.083022 2.214007
0.000000 0.186800 2.214007
0.020756 0.186800 2.214007
0.083022 0.186800 2.214007
0.186800 0.186800 2.214007
0.332700 0.186800 2.214007
0.590726 0.186800 2.214007
1.121632 0.186800 2.214007
2.214007 0.186800 2.214007
0.000000 0.332700 2.214007
0.020756 0.332700 2.214007
0.083022 0.332700 2.214007
0.186800 0.332700 2.214007
0.332700 0.332700 2.214007
0.590726 0.332700 2.214007
1.121632 0.332700 2.214007
2.214007 0.332700 2.214007
0.000000 0.590726 2.214007
0.020756 0.590726 2.214007
0.083022 0.590726 2.214007
0.186800 0.590726 2.214007
0.332700 0.590726 2.214007
0.590726 0.590726 2.214007
1.121632 0.590726 2.214007
2.214007 0.590726 2.214007
0.000000 1.121632 2.214007
0.020756 1.121632 2.214007
0.083022 1.121632 2.214007
0.186800 1.121632 2.214007
0.332700 1.121632 2.214007
0.590726 1.121632 2.214007
1.121632 1.121632 2.214007
2.214007 1.121632 2.214007
0.000000 2.214007 2.214007
0.020756 2.214007 2.214007
0.083022 2.214007 2.214007
0.186800 2.214007 2.214007
0.332700 2.214007 2.214007
0.590726 2.214007 2.214007
1.121632 2.214007 2.214007
2.214007 2.214007 2.214007
