luts/hlg_to_linear.cube
TITLE "HLG Scene"
LUT_3D_SIZE 5
DOMAIN_MIN 0.000000 0.000000 0.000000
DOMAIN_MAX 0.903226 0.903226 0.903226
0.000000 0.000000 0.000000
0.016996 0.000000 0.000000
0.067985 0.000000 0.000000
0.184486 0.000000 0.000000
0.591996 0.000000 0.000000
0.000000 0.016996 0.000000
0.016996 0.016996 0.000000
0.067985 0.016996 0.000000
0.184486 0.016996 0.000000
0.591996 0.016996 0.000000
0.000000 0.067985 0.000000
0.016996 0.067985 0.000000
0.067985 0.067985 0.000000
0.184486 0.067985 0.000000
0.591996 0.067985 0.000000
0.000000 0.184486 0.000000
0.016996 0.184486 0.000000
0.067985 0.184486 0.000000
0.184486 0.184486 0.000000
0.591996 0.184486 0.000000
0.000000 0.591996 0.000000
0.016996 0.591996 0.000000
0.067985 0.591996 0.000000
0.184486 0.591996 0.000000
0.591996 0.591996 0.000000
0.000000 0.000000 0.016996
0.016996 0.000000 0.016996
0.067985 0.000000 0.016996
0.184486 0.000000 0.016996
0.591996 0.000000 0.016996
0.000000 0.016996 0.016996
0.016996 0.016996 0.016996
0.067985 0.016996 0.016996
0.184486 0.016996 0.016996
0.591996 0.016996 0.016996
0.000000 0.067985 0.016996
0.016996 0.067985 0.016996
0.067985 0.067985 0.016996
0.184486 0.067985 0.016996
0.591996 0.067985 0.016996
0.000000 0.184486 0.016996
0.016996 0.184486 0.016996
0.067985 0.184486 0.016996
0.184486 0.184486 0.016996
0.591996 0.184486 0.016996
0.000000 0.591996 0.016996
0.016996 0.591996 0.016996
0.067985 0.591996 0.016996
0.184486 0.591996 0.016996
0.591996 0.591996 0.016996
0.000000 0.000000 0.067985
0.016996 0.000000 0.067985
0.067985 0.000000 0.067985
0.184486 0.000000 0.067985
0.591996 0.000000 0.067985
0.000000 0.016996 0.067985
0.016996 0.016996 0.067985
0.067985 0.016996 0.067985
0.184486 0.016996 0.067985
0.591996 0.016996 0.067985
0.000000 0.067985 0.067985
0.016996 0.067985 0.067985
0.067985 0.067985 0.067985
0.184486 0.067985 0.067985
0.591996 0.067985 0.067985
0.000000 0.184486 0.067985
0.016996 0.184486 0.067985
0.067985 0.184486 0.067985
0.184486 0.184486 0.067985
0.591996 0.184486 0.067985
0.000000 0.591996 0.067985
0.016996 0.591996 0.067985
0.067985 0.591996 0.067985
0.184486 0.591996 0.067985
0.591996 0.591996 0.067985
0.000000 0.000000 0.184486
0.016996 0.000000 0.184486
0.067985 0.000000 0.184486
0.184486 0.000000 0.184486
0.591996 0.000000 0.184486
0.000000 0.016996 0.184486
0.016996 0.016996 0.184486
0.067985 0.016996 0.184486
0.184486 0.016996 0.184486
0.591996 0.016996 0.184486
0.000000 0.067985 0.184486
0.016996 0.067985 0.184486
0.067985 0.067985 0.184486
0.184486 0.067985 0.184486
0.591996 0.067985 0.184486
0.000000 0.184486 0.184486
0.016996 0.184486 0.184486
0.067985 0.184486 0.184486
0.184486 0.184486 0.184486
0.591996 0.184486 0.184486
0.000000 0.591996 0.184486
0.016996 0.591996 0.184486
0.067985 0.591996 0.184486
0.184486 0.591996 0.184486
0.591996 0.591996 0.184486
0.000000 0.000000 0.591996
0.016996 0.000000 0.591996
0.067985 0.000000 0.591996
0.184486 0.000000 0.591996
0.591996 0.000000 0.591996
0.000000 0.016996 0.591996
0.016996 0.016996 0.591996
0.067985 0.016996 0.591996
0.184486 0.016996 0.591996
0.591996 0.016996 0.591996
0.000000 0.067985 0.591996
0.016996 0.067985 0.591996
0.067985 0.067985 0.591996
0.184486 0.067985 0.591996
0.591996 0.067985 0.591996
0.000000 0.184486 0.591996
0.016996 0.184486 0.591996
0.067985 0.184486 0.591996
0.184486 0.184486 0.591996
0.591996 0.184486 0.591996
0.000000 0.591996 0.591996
0.016996 0.591996 0.591996
0.067985 0.591996 0.591996
0.184486 0.591996 0.591996
0.591996 0.591996 0.591996
