luts/hlg_to_linear_exposure_1.903.cube
TITLE "HLG Scene with exposure of 1.903"
LUT_3D_SIZE 5
DOMAIN_MIN 0.000000 0.000000 0.000000
DOMAIN_MAX 0.903226 0.903226 0.903226
0.000000 0.000000 0.000000
0.063564 0.000000 0.000000
0.254256 0.000000 0.000000
0.689960 0.000000 0.000000
2.214007 0.000000 0.000000
0.000000 0.063564 0.000000
0.063564 0.063564 0.000000
0.254256 0.063564 0.000000
0.689960 0.063564 0.000000
2.214007 0.063564 0.000000
0.000000 0.254256 0.000000
0.063564 0.254256 0.000000
0.254256 0.254256 0.000000
0.689960 0.254256 0.000000
2.214007 0.254256 0.000000
0.000000 0.689960 0.000000
0.063564 0.689960 0.000000
0.254256 0.689960 0.000000
0.689960 0.689960 0.000000
2.214007 0.689960 0.000000
0.000000 2.214007 0.000000
0.063564 2.214007 0.000000
0.254256 2.214007 0.000000
0.689960 2.214007 0.000000
2.214007 2.214007 0.000000
0.000000 0.000000 0.063564
0.063564 0.000000 0.063564
0.254256 0.000000 0.063564
0.689960 0.000000 0.063564
2.214007 0.000000 0.063564
0.000000 0.063564 0.063564
0.063564 0.063564 0.063564
0.254256 0.063564 0.063564
0.689960 0.063564 0.063564
2.214007 0.063564 0.063564
0.000000 0.254256 0.063564
0.063564 0.254256 0.063564
0.254256 0.254256 0.063564
0.689960 0.254256 0.063564
2.214007 0.254256 0.063564
0.000000 0.689960 0.063564
0.063564 0.689960 0.063564
0.254256 0.689960 0.063564
0.689960 0.689960 0.063564
2.214007 0.689960 0.063564
0.000000 2.214007 0.063564
0.063564 2.214007 0.063564
0.254256 2.214007 0.063564
0.689960 2.214007 0.063564
2.214007 2.214007 0.063564
0.000000 0.000000 0.254256
0.063564 0.000000 0.254256
0.254256 0.000000 0.254256
0.689960 0.000000 0.254256
2.214007 0.000000 0.254256
0.000000 0.063564 0.254256
0.063564 0.063564 0.254256
0.254256 0.063564 0.254256
0.689960 0.063564 0.254256
2.214007 0.063564 0.254256
0.000000 0.254256 0.254256
0.063564 0.254256 0.254256
0.254256 0.254256 0.254256
0.689960 0.254256 0.254256
2.214007 0.254256 0.254256
0.000000 0.689960 0.254256
0.063564 0.689960 0.254256
0.254256 0.689960 0.254256
0.689960 0.689960 0.254256
2.214007 0.689960 0.254256
0.000000 2.214007 0.254256
0.063564 2.214007 0.254256
0.254256 2.214007 0.254256
0.689960 2.214007 0.254256
2.214007 2.214007 0.254256
0.000000 0.000000 0.689960
0.063564 0.000000 0.689960
0.254256 0.000000 0.689960
0.689960 0.000000 0.689960
2.214007 0.000000 0.689960
0.000000 0.063564 0.689960
0.063564 0.063564 0.689960
0.254256 0.063564 0.689960
0.689960 0.063564 0.689960
2.214007 0.063564 0.689960
0.000000 0.254256 0.689960
0.063564 0.254256 0.689960
0.254256 0.254256 0.689960
0.689960 0.254256 0.689960
2.214007 0.254256 0.689960
0.000000 0.689960 0.689960
0.063564 0.689960 0.689960
0.254256 0.689960 0.689960
0.689960 0.689960 0.689960
2.214007 0.689960 0.689960
0.000000 2.214007 0.689960
0.063564 2.214007 0.689960
0.254256 2.214007 0.689960
0.689960 2.214007 0.689960
2.214007 2.214007 0.689960
0.000000 0.000000 2.214007
0.063564 0.000000 2.214007
0.254256 0.000000 2.214007
0.689960 0.000000 2.214007
2.214007 0.000000 2.214007
0.000000 0.063564 2.214007
0.063564 0.063564 2.214007
0.254256 0.063564 2.214007
0.689960 0.063564 2.214007
2.214007 0.063564 2.214007
0.000000 0.254256 2.214007
0.063564 0.254256 2.214007
0.254256 0.254256 2.214007
0.689960 0.254256 2.214007
2.214007 0.254256 2.214007
0.000000 0.689960 2.214007
0.063564 0.689960 2.214007
0.254256 0.689960 2.214007
0.689960 0.689960 2.214007
2.214007 0.689960 2.214007
0.000000 2.214007 2.214007
0.063564 2.214007 2.214007
0.254256 2.214007 2.214007
0.689960 2.214007 2.214007
2.214007 2.214007 2.214007
